;FLAVOR:Marlin
;TIME:17556
;Filament used: 21.6993m
;Layer height: 0.2
;Generated with Cura_SteamEngine 3.6.0
M140 S60
M105
M190 S60
M104 S210
M105
M109 S210
M82 ;absolute extrusion mode
G28 ;Home
G1 Z15.0 F6000 ;Move the platform down 15mm
;Prime the extruder
G92 E0
G1 F200 E3
G92 E0
G92 E0
G1 F1500 E-6.5
;LAYER_COUNT:50
;LAYER:0
M107
G0 F3600 X20.081 Y19.963 Z0.3
;TYPE:SKIRT
G1 F1500 E0
G1 F1800 X20.334 Y19.747 E0.0166
G1 X29.327 Y12.849 E0.58205
G1 X29.752 Y12.574 E0.6073
G1 X30.05 Y12.432 E0.62377
G1 X40.507 Y8.098 E1.1885
G1 X40.988 Y7.942 E1.21373
G1 X41.314 Y7.881 E1.23028
G1 X52.56 Y6.398 E1.7962
G1 X53.065 Y6.372 E1.82143
G1 X53.394 Y6.398 E1.83789
G1 X64.583 Y7.865 E2.40089
G1 X65.078 Y7.97 E2.42614
G1 X65.389 Y8.08 E2.4426
G1 X75.862 Y12.407 E3.00794
G1 X76.312 Y12.637 E3.03315
G1 X76.585 Y12.824 E3.04966
G1 X85.72 Y19.819 E3.62367
G1 X86.038 Y20.097 E3.64475
G1 X179.914 Y113.973 E10.2682
G1 X180.191 Y114.289 E10.28917
G1 X187.152 Y123.372 E10.86009
G1 X187.427 Y123.797 E10.88535
G1 X187.568 Y124.093 E10.90171
G1 X191.903 Y134.549 E11.46641
G1 X192.059 Y135.03 E11.49164
G1 X192.12 Y135.357 E11.50824
G1 X193.602 Y146.597 E12.07386
G1 X193.628 Y147.102 E12.09908
G1 X193.602 Y147.432 E12.1156
G1 X192.125 Y158.669 E12.68104
G1 X192.019 Y159.164 E12.70629
G1 X191.909 Y159.476 E12.7228
G1 X187.58 Y169.935 E13.28753
G1 X187.35 Y170.385 E13.31274
G1 X187.162 Y170.658 E13.32928
G1 X180.257 Y179.661 E13.89534
G1 X179.919 Y180.037 E13.92056
G1 X179.666 Y180.253 E13.93716
G1 X170.673 Y187.151 E14.50261
G1 X170.248 Y187.426 E14.52786
G1 X169.95 Y187.568 E14.54433
G1 X159.493 Y191.902 E15.10907
G1 X159.012 Y192.058 E15.13429
G1 X158.686 Y192.119 E15.15084
G1 X147.441 Y193.602 E15.71671
G1 X146.937 Y193.628 E15.74189
G1 X146.606 Y193.602 E15.75845
G1 X135.383 Y192.126 E16.32319
G1 X134.888 Y192.02 E16.34845
G1 X134.575 Y191.909 E16.36502
G1 X124.086 Y187.562 E16.93148
G1 X123.636 Y187.332 E16.95669
G1 X123.364 Y187.145 E16.97316
G1 X114.268 Y180.169 E17.54505
G1 X113.952 Y179.893 E17.56598
G1 X20.083 Y86.024 E24.18895
G1 X19.806 Y85.708 E24.20991
G1 X12.847 Y76.628 E24.78066
G1 X12.572 Y76.203 E24.80591
G1 X12.431 Y75.906 E24.82232
G1 X8.097 Y65.45 E25.38701
G1 X7.941 Y64.969 E25.41223
G1 X7.88 Y64.643 E25.42878
G1 X6.398 Y53.402 E25.99445
G1 X6.372 Y52.897 E26.01968
G1 X6.398 Y52.567 E26.03619
G1 X7.875 Y41.331 E26.60158
G1 X7.981 Y40.836 E26.62683
G1 X8.091 Y40.524 E26.64334
G1 X12.42 Y30.065 E27.20807
G1 X12.65 Y29.615 E27.23328
G1 X12.838 Y29.342 E27.24982
G1 X19.743 Y20.339 E27.81588
G1 X20.081 Y19.963 E27.8411
G0 F3600 X22.427 Y22.408
;TYPE:SUPPORT
G1 F1800 X31.381 Y15.543 E28.40401
G1 X41.797 Y11.231 E28.96643
G1 X52.988 Y9.759 E29.52956
G1 X64.156 Y11.229 E30.09154
G1 X74.579 Y15.547 E30.6544
G1 X83.645 Y22.499 E31.22438
G1 X177.502 Y116.354 E37.84643
G1 X184.454 Y125.42 E38.41641
G1 X188.772 Y135.843 E38.97927
G1 X190.242 Y147.034 E39.54239
G1 X188.768 Y158.212 E40.10489
G1 X184.45 Y168.632 E40.66761
G1 X177.573 Y177.592 E41.23112
G1 X168.619 Y184.457 E41.79402
G1 X158.203 Y188.769 E42.35644
G1 X147.012 Y190.241 E42.91958
G1 X135.839 Y188.77 E43.48181
G1 X125.4 Y184.441 E44.04562
G1 X116.355 Y177.501 E44.6144
G1 X22.497 Y83.645 E51.23652
G1 X15.546 Y74.58 E51.80643
G1 X11.228 Y64.156 E52.36934
G1 X9.758 Y52.966 E52.9324
G1 X11.233 Y41.785 E53.49506
G1 X15.55 Y31.368 E54.05763
G1 X22.427 Y22.408 E54.62113
G0 F3600 X23.18 Y23.199
G1 F1800 X16.487 Y31.925 E55.16979
G1 X12.281 Y42.089 E55.71857
G1 X10.85 Y52.99 E56.26709
G1 X12.288 Y63.89 E56.81561
G1 X16.5 Y74.052 E57.36441
G1 X23.312 Y82.927 E57.92258
G1 X117.084 Y176.696 E64.5386
G1 X125.971 Y183.512 E65.09736
G1 X136.135 Y187.718 E65.64614
G1 X147.036 Y189.149 E66.19466
G1 X157.935 Y187.711 E66.74313
G1 X168.096 Y183.499 E67.29189
G1 X176.819 Y176.8 E67.84061
G1 X183.513 Y168.075 E68.38926
G1 X187.719 Y157.911 E68.93804
G1 X189.15 Y147.01 E69.48656
G1 X187.712 Y136.11 E70.03508
G1 X183.5 Y125.948 E70.58388
G1 X176.688 Y117.073 E71.14205
G1 X82.916 Y23.304 E77.75807
G1 X74.029 Y16.488 E78.31683
G1 X63.865 Y12.282 E78.86561
G1 X52.964 Y10.851 E79.41413
G1 X42.065 Y12.289 E79.9626
G1 X31.903 Y16.5 E80.51139
G1 X23.18 Y23.199 E81.06011
G0 F3600 X22.361 Y24.003
G1 F1800 X21.405 Y24.003 E81.1078
G0 F3600 X21.336 Y24.092
G1 F1800 X21.336 Y25.341 E81.17012
G0 F3600 X20.315 Y26.67
G1 F1800 X19.358 Y26.67 E81.21786
G0 F3600 X18.669 Y27.567
G1 F1800 X18.669 Y28.818 E81.28027
G0 F3600 X18.27 Y29.337
G1 F1800 X17.311 Y29.337 E81.32812
G0 F3600 X16.002 Y31.042
G1 F1800 X16.002 Y32.678 E81.40974
G0 F3600 X16.279 Y32.004
G1 F1800 X15.46 Y32.004 E81.4506
G0 F3600 X15.176 Y34.671
G1 F1800 X14.354 Y34.671 E81.49161
G0 F3600 X13.335 Y37.131
G1 F1800 X13.335 Y39.123 E81.59099
G0 F3600 X12.968 Y40.005
G1 F1800 X12.144 Y40.005 E81.6321
G0 F3600 X12.041 Y42.672
G1 F1800 X11.276 Y42.672 E81.67026
G0 F3600 X10.925 Y45.339
G1 F1800 X11.691 Y45.339 E81.70848
G0 F3600 X10.668 Y47.288
G1 F1800 X10.668 Y58.667 E82.27618
G0 F3600 X10.667 Y58.674
G1 F1800 X11.438 Y58.674 E82.31465
G0 F3600 X11.086 Y56.007
G1 F1800 X10.317 Y56.007 E82.35301
G0 F3600 X9.967 Y53.34
G1 F1800 X10.735 Y53.34 E82.39133
G0 F3600 X10.992 Y50.673
G1 F1800 X10.221 Y50.673 E82.42979
G0 F3600 X10.573 Y48.006
G1 F1800 X11.341 Y48.006 E82.46811
G0 F3600 X13.249 Y37.338
G1 F1800 X14.072 Y37.338 E82.50917
G1 F1500 E76.00917
G0 F3600 X16.745 Y32.074
G0 X24.003 Y22.366
G1 F1500 E82.50917
G1 F1800 X24.003 Y21.401 E82.55731
G0 F3600 X24.088 Y21.336
G1 F1800 X25.342 Y21.336 E82.61987
G0 F3600 X26.67 Y20.317
G1 F1800 X26.67 Y19.356 E82.66782
G0 F3600 X27.567 Y18.669
G1 F1800 X28.814 Y18.669 E82.73003
G0 F3600 X29.337 Y18.269
G1 F1800 X29.337 Y17.311 E82.77783
G0 F3600 X31.045 Y16.002
G1 F1800 X32.683 Y16.002 E82.85955
G0 F3600 X32.004 Y16.285
G1 F1800 X32.004 Y15.458 E82.90081
G0 F3600 X34.671 Y15.18
G1 F1800 X34.671 Y14.353 E82.94207
G0 F3600 X37.13 Y13.335
G1 F1800 X39.119 Y13.335 E83.0413
G0 F3600 X40.005 Y12.969
G1 F1800 X40.005 Y12.145 E83.08241
G0 F3600 X42.672 Y12.048
G1 F1800 X42.672 Y11.276 E83.12092
G0 F3600 X45.339 Y10.925
G1 F1800 X45.339 Y11.696 E83.15939
G0 F3600 X47.293 Y10.668
G1 F1800 X58.679 Y10.668 E83.72744
G0 F3600 X58.674 Y10.669
G1 F1800 X58.674 Y11.439 E83.76585
G0 F3600 X56.007 Y11.089
G1 F1800 X56.007 Y10.318 E83.80432
G0 F3600 X53.34 Y9.967
G1 F1800 X53.34 Y10.739 E83.84283
G0 F3600 X50.673 Y10.993
G1 F1800 X50.673 Y10.224 E83.8812
G0 F3600 X48.006 Y10.575
G1 F1800 X48.006 Y11.344 E83.91956
G0 F3600 X37.338 Y13.249
G1 F1800 X37.338 Y14.075 E83.96077
G1 F1500 E77.46077
G0 F3600 X42.142 Y12.576
G0 X52.964 Y11.148
G0 X61.341 Y11.789
G1 F1500 E83.96077
G1 F1800 X61.341 Y11.02 E83.99914
G0 F3600 X64.008 Y11.371
G1 F1800 X64.008 Y12.167 E84.03885
G0 F3600 X66.675 Y12.447
G1 F1800 X66.675 Y13.271 E84.07996
G0 F3600 X66.831 Y13.335
G1 F1800 X68.823 Y13.335 E84.17934
G0 F3600 X69.342 Y13.552
G1 F1800 X69.342 Y14.374 E84.22035
G0 F3600 X72.009 Y14.656
G1 F1800 X72.009 Y15.478 E84.26136
G0 F3600 X73.276 Y16.002
G1 F1800 X74.911 Y16.002 E84.34293
G0 F3600 X74.676 Y15.824
G1 F1800 X74.676 Y16.782 E84.39073
G0 F3600 X77.343 Y17.869
G1 F1800 X77.343 Y18.827 E84.43852
G0 F3600 X77.137 Y18.669
G1 F1800 X78.388 Y18.669 E84.50093
G0 F3600 X80.01 Y19.915
G1 F1800 X80.01 Y20.873 E84.54873
G0 F3600 X80.614 Y21.336
G1 F1800 X81.866 Y21.336 E84.61119
G0 F3600 X82.677 Y21.96
G1 F1800 X82.677 Y22.918 E84.65899
G0 F3600 X83.843 Y24.003
G1 F1800 X84.925 Y24.003 E84.71297
G0 F3600 X85.344 Y24.424
G1 F1800 X85.344 Y25.504 E84.76685
G0 F3600 X86.51 Y26.67
G1 F1800 X87.592 Y26.67 E84.82083
G0 F3600 X88.011 Y27.091
G1 F1800 X88.011 Y28.171 E84.87471
G0 F3600 X89.177 Y29.337
G1 F1800 X90.259 Y29.337 E84.92869
G0 F3600 X90.678 Y29.758
G1 F1800 X90.678 Y30.838 E84.98257
G0 F3600 X91.844 Y32.004
G1 F1800 X92.926 Y32.004 E85.03656
G0 F3600 X93.345 Y32.425
G1 F1800 X93.345 Y33.505 E85.09044
G0 F3600 X94.511 Y34.671
G1 F1800 X95.593 Y34.671 E85.14442
G0 F3600 X96.012 Y35.092
G1 F1800 X96.012 Y36.172 E85.1983
G0 F3600 X97.178 Y37.338
G1 F1800 X98.26 Y37.338 E85.25228
G0 F3600 X98.679 Y37.759
G1 F1800 X98.679 Y38.839 E85.30616
G0 F3600 X99.845 Y40.005
G1 F1800 X100.927 Y40.005 E85.36014
G0 F3600 X101.346 Y40.426
G1 F1800 X101.346 Y41.506 E85.41403
G0 F3600 X102.512 Y42.672
G1 F1800 X103.594 Y42.672 E85.46801
G0 F3600 X104.013 Y43.093
G1 F1800 X104.013 Y44.173 E85.52189
G0 F3600 X105.179 Y45.339
G1 F1800 X106.261 Y45.339 E85.57587
G0 F3600 X106.68 Y45.76
G1 F1800 X106.68 Y46.84 E85.62975
G0 F3600 X107.846 Y48.006
G1 F1800 X108.928 Y48.006 E85.68373
G0 F3600 X109.347 Y48.427
G1 F1800 X109.347 Y49.507 E85.73761
G0 F3600 X110.513 Y50.673
G1 F1800 X111.595 Y50.673 E85.79159
G0 F3600 X112.014 Y51.094
G1 F1800 X112.014 Y52.174 E85.84548
G0 F3600 X113.18 Y53.34
G1 F1800 X114.262 Y53.34 E85.89946
G0 F3600 X114.681 Y53.761
G1 F1800 X114.681 Y54.84 E85.95329
G0 F3600 X115.848 Y56.007
G1 F1800 X116.929 Y56.007 E86.00722
G0 F3600 X117.348 Y56.428
G1 F1800 X117.348 Y57.507 E86.06105
G0 F3600 X118.515 Y58.674
G1 F1800 X119.596 Y58.674 E86.11498
G0 F3600 X120.015 Y59.095
G1 F1800 X120.015 Y60.174 E86.16881
G0 F3600 X121.182 Y61.341
G1 F1800 X122.263 Y61.341 E86.22275
G0 F3600 X122.682 Y61.762
G1 F1800 X122.682 Y62.841 E86.27658
G0 F3600 X123.849 Y64.008
G1 F1800 X124.93 Y64.008 E86.33051
G0 F3600 X125.349 Y64.429
G1 F1800 X125.349 Y65.508 E86.38434
G0 F3600 X126.516 Y66.675
G1 F1800 X127.597 Y66.675 E86.43827
G0 F3600 X128.016 Y67.096
G1 F1800 X128.016 Y68.175 E86.4921
G0 F3600 X129.183 Y69.342
G1 F1800 X130.264 Y69.342 E86.54603
G0 F3600 X130.683 Y69.762
G1 F1800 X130.683 Y70.842 E86.59992
G0 F3600 X131.85 Y72.009
G1 F1800 X132.932 Y72.009 E86.6539
G0 F3600 X133.35 Y72.429
G1 F1800 X133.35 Y73.509 E86.70778
G0 F3600 X134.517 Y74.676
G1 F1800 X135.599 Y74.676 E86.76176
G0 F3600 X136.017 Y75.096
G1 F1800 X136.017 Y76.176 E86.81564
G0 F3600 X137.184 Y77.343
G1 F1800 X138.266 Y77.343 E86.86962
G0 F3600 X138.684 Y77.763
G1 F1800 X138.684 Y78.843 E86.9235
G0 F3600 X139.851 Y80.01
G1 F1800 X140.933 Y80.01 E86.97748
G0 F3600 X141.351 Y80.43
G1 F1800 X141.351 Y81.51 E87.03137
G0 F3600 X142.518 Y82.677
G1 F1800 X143.6 Y82.677 E87.08535
G0 F3600 X144.018 Y83.097
G1 F1800 X144.018 Y84.177 E87.13923
G0 F3600 X145.185 Y85.344
G1 F1800 X146.267 Y85.344 E87.19321
G0 F3600 X146.685 Y85.764
G1 F1800 X146.685 Y86.843 E87.24704
G0 F3600 X147.853 Y88.011
G1 F1800 X148.934 Y88.011 E87.30097
G0 F3600 X149.352 Y88.431
G1 F1800 X149.352 Y89.51 E87.3548
G0 F3600 X150.52 Y90.678
G1 F1800 X151.601 Y90.678 E87.40874
G0 F3600 X152.019 Y91.098
G1 F1800 X152.019 Y92.177 E87.46257
G0 F3600 X153.187 Y93.345
G1 F1800 X154.268 Y93.345 E87.5165
G0 F3600 X154.686 Y93.765
G1 F1800 X154.686 Y94.844 E87.57033
G0 F3600 X155.854 Y96.012
G1 F1800 X156.935 Y96.012 E87.62426
G0 F3600 X157.353 Y96.432
G1 F1800 X157.353 Y97.511 E87.67809
G0 F3600 X158.521 Y98.679
G1 F1800 X159.602 Y98.679 E87.73202
G0 F3600 X160.02 Y99.099
G1 F1800 X160.02 Y100.178 E87.78586
G0 F3600 X161.188 Y101.346
G1 F1800 X162.269 Y101.346 E87.83979
G0 F3600 X162.687 Y101.766
G1 F1800 X162.687 Y102.845 E87.89362
G0 F3600 X163.855 Y104.013
G1 F1800 X164.936 Y104.013 E87.94755
G0 F3600 X165.354 Y104.433
G1 F1800 X165.354 Y105.512 E88.00138
G0 F3600 X166.522 Y106.68
G1 F1800 X167.603 Y106.68 E88.05531
G0 F3600 X168.021 Y107.1
G1 F1800 X168.021 Y108.179 E88.10914
G0 F3600 X169.189 Y109.347
G1 F1800 X170.27 Y109.347 E88.16308
G0 F3600 X170.688 Y109.767
G1 F1800 X170.688 Y110.846 E88.21691
G0 F3600 X171.856 Y112.014
G1 F1800 X172.937 Y112.014 E88.27084
G0 F3600 X173.355 Y112.434
G1 F1800 X173.355 Y113.513 E88.32467
G0 F3600 X174.523 Y114.681
G1 F1800 X175.604 Y114.681 E88.3786
G0 F3600 X176.022 Y115.101
G1 F1800 X176.022 Y116.18 E88.43243
G0 F3600 X177.101 Y117.348
G1 F1800 X178.063 Y117.348 E88.48043
G0 F3600 X178.689 Y118.167
G1 F1800 X178.689 Y119.416 E88.54274
G0 F3600 X179.148 Y120.015
G1 F1800 X180.108 Y120.015 E88.59063
G0 F3600 X181.356 Y121.644
G1 F1800 X181.356 Y122.891 E88.65285
G0 F3600 X181.196 Y122.682
G1 F1800 X182.153 Y122.682 E88.70059
G0 F3600 X183.243 Y125.349
G1 F1800 X184.199 Y125.349 E88.74829
G0 F3600 X184.023 Y125.122
G1 F1800 X184.023 Y126.79 E88.8315
G0 F3600 X184.531 Y128.016
G1 F1800 X185.357 Y128.016 E88.87271
G0 F3600 X185.636 Y130.683
G1 F1800 X186.461 Y130.683 E88.91387
G0 F3600 X186.69 Y131.237
G1 F1800 X186.69 Y133.225 E89.01305
G0 F3600 X186.741 Y133.35
G1 F1800 X187.566 Y133.35 E89.05421
G0 F3600 X187.847 Y136.017
G1 F1800 X188.634 Y136.017 E89.09348
G0 F3600 X188.985 Y138.684
G1 F1800 X188.213 Y138.684 E89.13199
G0 F3600 X188.564 Y141.351
G1 F1800 X189.335 Y141.351 E89.17046
G0 F3600 X189.357 Y141.522
G1 F1800 X189.357 Y152.525 E89.7194
G0 F3600 X189.423 Y152.019
G1 F1800 X188.654 Y152.019 E89.75777
G0 F3600 X189.004 Y149.352
G1 F1800 X189.775 Y149.352 E89.79623
G0 F3600 X190.036 Y146.685
G1 F1800 X189.268 Y146.685 E89.83455
G0 F3600 X188.916 Y144.018
G1 F1800 X189.685 Y144.018 E89.87291
G0 F3600 X189.072 Y154.686
G1 F1800 X188.304 Y154.686 E89.91123
G0 F3600 X187.954 Y157.353
G1 F1800 X188.72 Y157.353 E89.94944
G0 F3600 X187.845 Y160.02
G1 F1800 X187.021 Y160.02 E89.99055
G0 F3600 X186.69 Y160.817
G1 F1800 X186.69 Y162.808 E90.08988
G0 F3600 X186.739 Y162.687
G1 F1800 X185.917 Y162.687 E90.13089
G0 F3600 X185.634 Y165.354
G1 F1800 X184.813 Y165.354 E90.17185
G0 F3600 X184.023 Y167.261
G1 F1800 X184.023 Y168.925 E90.25487
G0 F3600 X183.709 Y168.021
G1 F1800 X184.529 Y168.021 E90.29578
G0 F3600 X182.669 Y170.688
G1 F1800 X181.711 Y170.688 E90.34358
G0 F3600 X181.356 Y171.149
G1 F1800 X181.356 Y172.401 E90.40604
G0 F3600 X180.623 Y173.355
G1 F1800 X179.664 Y173.355 E90.45388
G0 F3600 X178.689 Y174.625
G1 F1800 X178.689 Y175.876 E90.5163
G0 F3600 X178.576 Y176.022
G1 F1800 X177.618 Y176.022 E90.56409
G0 F3600 X176.022 Y177.613
G1 F1800 X176.022 Y178.58 E90.61233
G0 F3600 X175.879 Y178.689
G1 F1800 X174.622 Y178.689 E90.67505
G0 F3600 X173.355 Y179.662
G1 F1800 X173.355 Y180.625 E90.72309
G0 F3600 X172.4 Y181.356
G1 F1800 X171.15 Y181.356 E90.78545
G0 F3600 X170.688 Y181.71
G1 F1800 X170.688 Y182.669 E90.8333
G0 F3600 X168.921 Y184.023
G1 F1800 X167.251 Y184.023 E90.91662
G0 F3600 X168.021 Y183.703
G1 F1800 X168.021 Y184.532 E90.95797
G0 F3600 X165.354 Y184.809
G1 F1800 X165.354 Y185.636 E90.99923
G0 F3600 X162.687 Y185.914
G1 F1800 X162.687 Y186.74 E91.04044
G0 F3600 X162.807 Y186.69
G1 F1800 X160.818 Y186.69 E91.13967
G0 F3600 X160.02 Y187.02
G1 F1800 X160.02 Y187.844 E91.18078
G0 F3600 X157.353 Y187.949
G1 F1800 X157.353 Y188.721 E91.2193
G0 F3600 X154.686 Y189.071
G1 F1800 X154.686 Y188.301 E91.25771
G0 F3600 X152.509 Y189.357
G1 F1800 X141.52 Y189.357 E91.80596
G0 F3600 X141.351 Y189.334
G1 F1800 X141.351 Y188.565 E91.84432
G0 F3600 X144.018 Y188.914
G1 F1800 X144.018 Y189.685 E91.88279
G0 F3600 X146.685 Y190.036
G1 F1800 X146.685 Y189.264 E91.9213
G0 F3600 X149.352 Y189.004
G1 F1800 X149.352 Y189.773 E91.95967
G0 F3600 X152.019 Y189.422
G1 F1800 X152.019 Y188.652 E91.99809
G1 F1500 E85.49809
G0 F3600 X147.984 Y188.814
G0 X138.684 Y188.983
G1 F1500 E91.99809
G1 F1800 X138.684 Y188.215 E92.0364
G0 F3600 X136.017 Y187.843
G1 F1800 X136.017 Y188.632 E92.07576
G0 F3600 X133.35 Y187.564
G1 F1800 X133.35 Y186.74 E92.11687
G0 F3600 X133.231 Y186.69
G1 F1800 X131.241 Y186.69 E92.21616
G0 F3600 X130.683 Y186.458
G1 F1800 X130.683 Y185.636 E92.25716
G0 F3600 X128.016 Y185.352
G1 F1800 X128.016 Y184.532 E92.29807
G0 F3600 X126.786 Y184.023
G1 F1800 X125.117 Y184.023 E92.38134
G0 F3600 X125.349 Y184.199
G1 F1800 X125.349 Y183.238 E92.42929
G0 F3600 X122.682 Y182.153
G1 F1800 X122.682 Y181.192 E92.47723
G0 F3600 X122.896 Y181.356
G1 F1800 X121.642 Y181.356 E92.53979
G0 F3600 X120.015 Y180.106
G1 F1800 X120.015 Y179.146 E92.58769
G0 F3600 X119.419 Y178.689
G1 F1800 X118.166 Y178.689 E92.6502
G0 F3600 X117.348 Y178.06
G1 F1800 X117.348 Y177.101 E92.69804
G0 F3600 X116.182 Y176.022
G1 F1800 X115.1 Y176.022 E92.75203
G0 F3600 X114.681 Y175.601
G1 F1800 X114.681 Y174.521 E92.80591
G0 F3600 X113.515 Y173.355
G1 F1800 X112.433 Y173.355 E92.85989
G0 F3600 X112.014 Y172.934
