;FLAVOR:Marlin
;TIME:24113
;Filament used: 27.4408m
;Layer height: 0.2
;Generated with Cura_SteamEngine 3.6.0
M140 S60
M105
M190 S60
M104 S210
M105
M109 S210
M82 ;absolute extrusion mode
G28 ;Home
G1 Z15.0 F6000 ;Move the platform down 15mm
;Prime the extruder
G92 E0
G1 F200 E3
G92 E0
G92 E0
G1 F1500 E-6.5
;LAYER_COUNT:150
;LAYER:0
M107
G0 F3600 X20.079 Y19.965 Z0.3
;TYPE:SKIRT
G1 F1500 E0
G1 F1800 X20.332 Y19.749 E0.0166
G1 X29.32 Y12.852 E0.58182
G1 X29.744 Y12.577 E0.60703
G1 X30.043 Y12.435 E0.62354
G1 X40.508 Y8.098 E1.18871
G1 X40.989 Y7.942 E1.21393
G1 X41.315 Y7.881 E1.23048
G1 X52.559 Y6.399 E1.7963
G1 X53.064 Y6.373 E1.82152
G1 X53.393 Y6.399 E1.83799
G1 X64.583 Y7.865 E2.40103
G1 X65.077 Y7.97 E2.42623
G1 X65.389 Y8.08 E2.44273
G1 X75.862 Y12.407 E3.00807
G1 X76.312 Y12.637 E3.03328
G1 X76.585 Y12.824 E3.04979
G1 X85.72 Y19.819 E3.62381
G1 X86.038 Y20.097 E3.64488
G1 X179.899 Y113.963 E10.26746
G1 X180.174 Y114.278 E10.28832
G1 X187.15 Y123.367 E10.85994
G1 X187.426 Y123.791 E10.88518
G1 X187.568 Y124.09 E10.90169
G1 X191.904 Y134.553 E11.46674
G1 X192.06 Y135.034 E11.49197
G1 X192.121 Y135.36 E11.50852
G1 X193.602 Y146.603 E12.07428
G1 X193.628 Y147.108 E12.09951
G1 X193.602 Y147.438 E12.11602
G1 X192.126 Y158.665 E12.68096
G1 X192.02 Y159.16 E12.70621
G1 X191.91 Y159.472 E12.72272
G1 X187.574 Y169.943 E13.28814
G1 X187.344 Y170.394 E13.31339
G1 X187.156 Y170.667 E13.32993
G1 X180.259 Y179.657 E13.89523
G1 X179.92 Y180.032 E13.92045
G1 X179.669 Y180.247 E13.93694
G1 X170.679 Y187.149 E14.50239
G1 X170.255 Y187.424 E14.5276
G1 X169.955 Y187.567 E14.54418
G1 X159.487 Y191.903 E15.10946
G1 X159.006 Y192.059 E15.13469
G1 X158.68 Y192.12 E15.15124
G1 X147.44 Y193.601 E15.71685
G1 X146.935 Y193.627 E15.74208
G1 X146.605 Y193.601 E15.75859
G1 X135.381 Y192.126 E16.32338
G1 X134.887 Y192.02 E16.34858
G1 X134.573 Y191.909 E16.3652
G1 X124.091 Y187.565 E16.93128
G1 X123.641 Y187.335 E16.95649
G1 X123.363 Y187.144 E16.97332
G1 X114.067 Y179.981 E17.55881
G1 X113.757 Y179.709 E17.57938
G1 X20.084 Y86.019 E24.18912
G1 X19.808 Y85.704 E24.21001
G1 X12.849 Y76.632 E24.78044
G1 X12.574 Y76.207 E24.8057
G1 X12.432 Y75.909 E24.82217
G1 X8.096 Y65.447 E25.38717
G1 X7.94 Y64.966 E25.4124
G1 X7.879 Y64.64 E25.42894
G1 X6.398 Y53.396 E25.99475
G1 X6.372 Y52.891 E26.01998
G1 X6.398 Y52.561 E26.0365
G1 X7.875 Y41.333 E26.60149
G1 X7.981 Y40.838 E26.62675
G1 X8.092 Y40.525 E26.64331
G1 X12.43 Y30.052 E27.20886
G1 X12.659 Y29.602 E27.23405
G1 X12.847 Y29.33 E27.25055
G1 X19.741 Y20.341 E27.81572
G1 X20.079 Y19.965 E27.84094
G0 F3600 X22.416 Y22.416
;TYPE:SUPPORT
G1 F1800 X31.37 Y15.547 E28.40397
G1 X41.8 Y11.229 E28.96715
G1 X52.988 Y9.759 E29.53012
G1 X64.156 Y11.229 E30.0921
G1 X74.579 Y15.547 E30.65496
G1 X83.645 Y22.499 E31.22494
G1 X177.491 Y116.346 E37.84632
G1 X184.457 Y125.423 E38.41716
G1 X188.773 Y135.849 E38.98012
G1 X190.242 Y147.034 E39.54293
G1 X188.768 Y158.212 E40.10543
G1 X184.456 Y168.623 E40.66763
G1 X177.579 Y177.586 E41.23125
G1 X168.628 Y184.453 E41.7941
G1 X158.195 Y188.772 E42.35744
G1 X147.012 Y190.241 E42.92016
G1 X135.839 Y188.77 E43.48239
G1 X125.408 Y184.445 E44.04575
G1 X116.349 Y177.495 E44.61539
G1 X22.509 Y83.654 E51.23635
G1 X15.544 Y74.578 E51.80712
G1 X11.227 Y64.151 E52.37014
G1 X9.758 Y52.966 E52.93296
G1 X11.233 Y41.785 E53.49561
G1 X15.546 Y31.371 E54.05797
G1 X22.416 Y22.416 E54.62106
G0 F3600 X23.18 Y23.199
G1 F1800 X16.487 Y31.925 E55.16972
G1 X12.281 Y42.089 E55.7185
G1 X10.85 Y52.99 E56.26702
G1 X12.288 Y63.89 E56.81554
G1 X16.5 Y74.052 E57.36434
G1 X23.313 Y82.926 E57.9225
G1 X117.084 Y176.696 E64.53852
G1 X125.971 Y183.512 E65.09728
G1 X136.135 Y187.718 E65.64607
G1 X147.036 Y189.149 E66.19458
G1 X157.935 Y187.711 E66.74305
G1 X168.096 Y183.499 E67.29181
G1 X176.819 Y176.8 E67.84053
G1 X183.513 Y168.075 E68.38918
G1 X187.719 Y157.911 E68.93796
G1 X189.15 Y147.01 E69.48648
G1 X187.712 Y136.11 E70.035
G1 X183.5 Y125.948 E70.5838
G1 X176.687 Y117.074 E71.14196
G1 X82.916 Y23.304 E77.75798
G1 X74.029 Y16.488 E78.31674
G1 X63.865 Y12.282 E78.86553
G1 X52.964 Y10.851 E79.41405
G1 X42.065 Y12.289 E79.96251
G1 X31.904 Y16.501 E80.51127
G1 X23.18 Y23.199 E81.06
G0 F3600 X22.361 Y24.003
G1 F1800 X21.401 Y24.003 E81.1079
G0 F3600 X21.336 Y24.086
G1 F1800 X21.336 Y25.341 E81.17051
G0 F3600 X20.315 Y26.67
G1 F1800 X19.355 Y26.67 E81.2184
G0 F3600 X18.669 Y27.563
G1 F1800 X18.669 Y28.818 E81.28101
G0 F3600 X18.27 Y29.337
G1 F1800 X17.309 Y29.337 E81.32896
G0 F3600 X16.002 Y31.04
G1 F1800 X16.002 Y32.678 E81.41068
G0 F3600 X16.279 Y32.004
G1 F1800 X15.457 Y32.004 E81.45169
G0 F3600 X15.176 Y34.671
G1 F1800 X14.352 Y34.671 E81.4928
G0 F3600 X13.335 Y37.128
G1 F1800 X13.335 Y39.123 E81.59233
G0 F3600 X12.968 Y40.005
G1 F1800 X12.143 Y40.005 E81.63349
G0 F3600 X12.041 Y42.672
G1 F1800 X11.276 Y42.672 E81.67165
G0 F3600 X10.925 Y45.339
G1 F1800 X11.691 Y45.339 E81.70987
G0 F3600 X10.668 Y47.288
G1 F1800 X10.668 Y58.669 E82.27767
G0 F3600 X10.667 Y58.674
G1 F1800 X11.438 Y58.674 E82.31614
G0 F3600 X11.086 Y56.007
G1 F1800 X10.317 Y56.007 E82.3545
G0 F3600 X9.967 Y53.34
G1 F1800 X10.735 Y53.34 E82.39282
G0 F3600 X10.992 Y50.673
G1 F1800 X10.221 Y50.673 E82.43128
G0 F3600 X10.573 Y48.006
G1 F1800 X11.341 Y48.006 E82.4696
G0 F3600 X13.248 Y37.338
G1 F1800 X14.072 Y37.338 E82.51071
G1 F1500 E76.01071
G0 F3600 X16.745 Y32.074
G0 X24.003 Y22.366
G1 F1500 E82.51071
G1 F1800 X24.003 Y21.4 E82.5589
G0 F3600 X24.087 Y21.336
G1 F1800 X25.343 Y21.336 E82.62156
G0 F3600 X26.67 Y20.318
G1 F1800 X26.67 Y19.354 E82.66966
G0 F3600 X27.563 Y18.669
G1 F1800 X28.816 Y18.669 E82.73217
G0 F3600 X29.337 Y18.27
G1 F1800 X29.337 Y17.308 E82.78016
G0 F3600 X31.04 Y16.002
G1 F1800 X32.686 Y16.002 E82.86228
G0 F3600 X32.004 Y16.286
G1 F1800 X32.004 Y15.458 E82.90359
G0 F3600 X34.671 Y15.181
G1 F1800 X34.671 Y14.353 E82.9449
G0 F3600 X37.13 Y13.335
G1 F1800 X39.12 Y13.335 E83.04418
G0 F3600 X40.005 Y12.97
G1 F1800 X40.005 Y12.145 E83.08534
G0 F3600 X42.672 Y12.048
G1 F1800 X42.672 Y11.275 E83.12391
G0 F3600 X45.339 Y10.924
G1 F1800 X45.339 Y11.696 E83.16242
G0 F3600 X47.288 Y10.668
G1 F1800 X58.679 Y10.668 E83.73072
G0 F3600 X58.674 Y10.669
G1 F1800 X58.674 Y11.439 E83.76914
G0 F3600 X56.007 Y11.089
G1 F1800 X56.007 Y10.318 E83.8076
G0 F3600 X53.34 Y9.967
G1 F1800 X53.34 Y10.739 E83.84612
G0 F3600 X50.673 Y10.993
G1 F1800 X50.673 Y10.224 E83.88448
G0 F3600 X48.006 Y10.574
G1 F1800 X48.006 Y11.344 E83.9229
G0 F3600 X37.338 Y13.249
G1 F1800 X37.338 Y14.075 E83.96411
G1 F1500 E77.46411
G0 F3600 X42.142 Y12.576
G0 X52.964 Y11.148
G0 X61.341 Y11.789
G1 F1500 E83.96411
G1 F1800 X61.341 Y11.02 E84.00247
G0 F3600 X64.008 Y11.371
G1 F1800 X64.008 Y12.167 E84.04219
G0 F3600 X66.675 Y12.447
G1 F1800 X66.675 Y13.271 E84.0833
G0 F3600 X66.831 Y13.335
G1 F1800 X68.823 Y13.335 E84.18268
G0 F3600 X69.342 Y13.552
G1 F1800 X69.342 Y14.374 E84.22369
G0 F3600 X72.009 Y14.656
G1 F1800 X72.009 Y15.478 E84.2647
G0 F3600 X73.276 Y16.002
G1 F1800 X74.911 Y16.002 E84.34627
G0 F3600 X74.676 Y15.824
G1 F1800 X74.676 Y16.782 E84.39406
G0 F3600 X77.343 Y17.869
G1 F1800 X77.343 Y18.827 E84.44186
G0 F3600 X77.137 Y18.669
G1 F1800 X78.388 Y18.669 E84.50427
G0 F3600 X80.01 Y19.915
G1 F1800 X80.01 Y20.873 E84.55207
G0 F3600 X80.614 Y21.336
G1 F1800 X81.866 Y21.336 E84.61453
G0 F3600 X82.677 Y21.96
G1 F1800 X82.677 Y22.918 E84.66232
G0 F3600 X83.843 Y24.003
G1 F1800 X84.924 Y24.003 E84.71625
G0 F3600 X85.344 Y24.425
G1 F1800 X85.344 Y25.504 E84.77009
G0 F3600 X86.51 Y26.67
G1 F1800 X87.591 Y26.67 E84.82402
G0 F3600 X88.011 Y27.092
G1 F1800 X88.011 Y28.171 E84.87785
G0 F3600 X89.177 Y29.337
G1 F1800 X90.258 Y29.337 E84.93178
G0 F3600 X90.678 Y29.759
G1 F1800 X90.678 Y30.838 E84.98561
G0 F3600 X91.844 Y32.004
G1 F1800 X92.925 Y32.004 E85.03954
G0 F3600 X93.345 Y32.426
G1 F1800 X93.345 Y33.505 E85.09337
G0 F3600 X94.511 Y34.671
G1 F1800 X95.592 Y34.671 E85.14731
G0 F3600 X96.012 Y35.093
G1 F1800 X96.012 Y36.172 E85.20114
G0 F3600 X97.178 Y37.338
G1 F1800 X98.259 Y37.338 E85.25507
G0 F3600 X98.679 Y37.76
G1 F1800 X98.679 Y38.839 E85.3089
G0 F3600 X99.845 Y40.005
G1 F1800 X100.926 Y40.005 E85.36283
G0 F3600 X101.346 Y40.427
G1 F1800 X101.346 Y41.506 E85.41666
G0 F3600 X102.512 Y42.672
G1 F1800 X103.593 Y42.672 E85.47059
G0 F3600 X104.013 Y43.094
G1 F1800 X104.013 Y44.173 E85.52443
G0 F3600 X105.179 Y45.339
G1 F1800 X106.26 Y45.339 E85.57836
G0 F3600 X106.68 Y45.761
G1 F1800 X106.68 Y46.84 E85.63219
G0 F3600 X107.846 Y48.006
G1 F1800 X108.927 Y48.006 E85.68612
G0 F3600 X109.347 Y48.428
G1 F1800 X109.347 Y49.507 E85.73995
G0 F3600 X110.513 Y50.673
G1 F1800 X111.594 Y50.673 E85.79388
G0 F3600 X112.014 Y51.095
G1 F1800 X112.014 Y52.174 E85.84771
G0 F3600 X113.18 Y53.34
G1 F1800 X114.261 Y53.34 E85.90165
G0 F3600 X114.681 Y53.762
G1 F1800 X114.681 Y54.841 E85.95548
G0 F3600 X115.847 Y56.007
G1 F1800 X116.928 Y56.007 E86.00941
G0 F3600 X117.348 Y56.429
G1 F1800 X117.348 Y57.508 E86.06324
G0 F3600 X118.514 Y58.674
G1 F1800 X119.595 Y58.674 E86.11717
G0 F3600 X120.015 Y59.096
G1 F1800 X120.015 Y60.175 E86.171
G0 F3600 X121.181 Y61.341
G1 F1800 X122.262 Y61.341 E86.22493
G0 F3600 X122.682 Y61.763
G1 F1800 X122.682 Y62.842 E86.27877
G0 F3600 X123.848 Y64.008
G1 F1800 X124.929 Y64.008 E86.3327
G0 F3600 X125.349 Y64.43
G1 F1800 X125.349 Y65.509 E86.38653
G0 F3600 X126.515 Y66.675
G1 F1800 X127.596 Y66.675 E86.44046
G0 F3600 X128.016 Y67.097
G1 F1800 X128.016 Y68.176 E86.49429
G0 F3600 X129.182 Y69.342
G1 F1800 X130.263 Y69.342 E86.54822
G0 F3600 X130.683 Y69.764
G1 F1800 X130.683 Y70.843 E86.60205
G0 F3600 X131.849 Y72.009
G1 F1800 X132.93 Y72.009 E86.65598
G0 F3600 X133.35 Y72.431
G1 F1800 X133.35 Y73.51 E86.70982
G0 F3600 X134.516 Y74.676
G1 F1800 X135.597 Y74.676 E86.76375
G0 F3600 X136.017 Y75.098
G1 F1800 X136.017 Y76.177 E86.81758
G0 F3600 X137.183 Y77.343
G1 F1800 X138.264 Y77.343 E86.87151
G0 F3600 X138.684 Y77.765
G1 F1800 X138.684 Y78.844 E86.92534
G0 F3600 X139.85 Y80.01
G1 F1800 X140.931 Y80.01 E86.97927
G0 F3600 X141.351 Y80.432
G1 F1800 X141.351 Y81.511 E87.0331
G0 F3600 X142.517 Y82.677
G1 F1800 X143.598 Y82.677 E87.08704
G0 F3600 X144.018 Y83.099
G1 F1800 X144.018 Y84.178 E87.14087
G0 F3600 X145.184 Y85.344
G1 F1800 X146.265 Y85.344 E87.1948
G0 F3600 X146.685 Y85.766
G1 F1800 X146.685 Y86.845 E87.24863
G0 F3600 X147.851 Y88.011
G1 F1800 X148.932 Y88.011 E87.30256
G0 F3600 X149.352 Y88.433
G1 F1800 X149.352 Y89.512 E87.35639
G0 F3600 X150.518 Y90.678
G1 F1800 X151.599 Y90.678 E87.41032
G0 F3600 X152.019 Y91.1
G1 F1800 X152.019 Y92.179 E87.46416
G0 F3600 X153.185 Y93.345
G1 F1800 X154.266 Y93.345 E87.51809
G0 F3600 X154.686 Y93.767
G1 F1800 X154.686 Y94.846 E87.57192
G0 F3600 X155.852 Y96.012
G1 F1800 X156.933 Y96.012 E87.62585
G0 F3600 X157.353 Y96.434
G1 F1800 X157.353 Y97.513 E87.67968
G0 F3600 X158.519 Y98.679
G1 F1800 X159.6 Y98.679 E87.73361
G0 F3600 X160.02 Y99.101
G1 F1800 X160.02 Y100.18 E87.78744
G0 F3600 X161.186 Y101.346
G1 F1800 X162.267 Y101.346 E87.84138
G0 F3600 X162.687 Y101.768
G1 F1800 X162.687 Y102.847 E87.89521
G0 F3600 X163.853 Y104.013
G1 F1800 X164.934 Y104.013 E87.94914
G0 F3600 X165.354 Y104.435
G1 F1800 X165.354 Y105.514 E88.00297
G0 F3600 X166.52 Y106.68
G1 F1800 X167.601 Y106.68 E88.0569
G0 F3600 X168.021 Y107.102
G1 F1800 X168.021 Y108.181 E88.11073
G0 F3600 X169.187 Y109.347
G1 F1800 X170.268 Y109.347 E88.16466
G0 F3600 X170.688 Y109.769
G1 F1800 X170.688 Y110.848 E88.2185
G0 F3600 X171.854 Y112.014
G1 F1800 X172.935 Y112.014 E88.27243
G0 F3600 X173.355 Y112.436
G1 F1800 X173.355 Y113.515 E88.32626
G0 F3600 X174.521 Y114.681
G1 F1800 X175.602 Y114.681 E88.38019
G0 F3600 X176.022 Y115.103
G1 F1800 X176.022 Y116.182 E88.43402
G0 F3600 X177.1 Y117.348
G1 F1800 X178.059 Y117.348 E88.48187
G0 F3600 X178.689 Y118.172
G1 F1800 X178.689 Y119.418 E88.54403
G0 F3600 X179.147 Y120.015
G1 F1800 X180.106 Y120.015 E88.59187
G0 F3600 X181.356 Y121.646
G1 F1800 X181.356 Y122.892 E88.65404
G0 F3600 X181.195 Y122.682
G1 F1800 X182.153 Y122.682 E88.70183
G0 F3600 X183.243 Y125.349
G1 F1800 X184.2 Y125.349 E88.74958
G0 F3600 X184.023 Y125.121
G1 F1800 X184.023 Y126.79 E88.83284
G0 F3600 X184.531 Y128.016
G1 F1800 X185.358 Y128.016 E88.8741
G0 F3600 X185.636 Y130.683
G1 F1800 X186.462 Y130.683 E88.91531
G0 F3600 X186.69 Y131.235
G1 F1800 X186.69 Y133.225 E89.01459
G0 F3600 X186.741 Y133.35
G1 F1800 X187.566 Y133.35 E89.05575
G0 F3600 X187.847 Y136.017
G1 F1800 X188.635 Y136.017 E89.09507
G0 F3600 X188.985 Y138.684
G1 F1800 X188.213 Y138.684 E89.13358
G0 F3600 X188.564 Y141.351
G1 F1800 X189.335 Y141.351 E89.17205
G0 F3600 X189.357 Y141.521
G1 F1800 X189.357 Y152.525 E89.72104
G0 F3600 X189.423 Y152.019
G1 F1800 X188.654 Y152.019 E89.7594
G0 F3600 X189.004 Y149.352
G1 F1800 X189.775 Y149.352 E89.79787
G0 F3600 X190.036 Y146.685
G1 F1800 X189.268 Y146.685 E89.83619
G0 F3600 X188.916 Y144.018
G1 F1800 X189.685 Y144.018 E89.87455
G0 F3600 X189.072 Y154.686
G1 F1800 X188.304 Y154.686 E89.91287
G0 F3600 X187.954 Y157.353
G1 F1800 X188.72 Y157.353 E89.95108
G0 F3600 X187.845 Y160.02
G1 F1800 X187.021 Y160.02 E89.99219
G0 F3600 X186.69 Y160.817
G1 F1800 X186.69 Y162.811 E90.09167
G0 F3600 X186.74 Y162.687
G1 F1800 X185.917 Y162.687 E90.13273
G0 F3600 X185.636 Y165.354
G1 F1800 X184.813 Y165.354 E90.17379
G0 F3600 X184.023 Y167.261
G1 F1800 X184.023 Y168.924 E90.25676
G0 F3600 X183.709 Y168.021
G1 F1800 X184.531 Y168.021 E90.29777
G0 F3600 X182.669 Y170.688
G1 F1800 X181.711 Y170.688 E90.34556
G0 F3600 X181.356 Y171.149
G1 F1800 X181.356 Y172.401 E90.40803
G0 F3600 X180.623 Y173.355
G1 F1800 X179.664 Y173.355 E90.45587
G0 F3600 X178.689 Y174.625
G1 F1800 X178.689 Y175.877 E90.51833
G0 F3600 X178.577 Y176.022
G1 F1800 X177.618 Y176.022 E90.56618
G0 F3600 X176.022 Y177.613
G1 F1800 X176.022 Y178.579 E90.61437
G0 F3600 X175.878 Y178.689
G1 F1800 X174.622 Y178.689 E90.67704
G0 F3600 X173.355 Y179.662
G1 F1800 X173.355 Y180.625 E90.72508
G0 F3600 X172.401 Y181.356
G1 F1800 X171.15 Y181.356 E90.78749
G0 F3600 X170.688 Y181.71
G1 F1800 X170.688 Y182.671 E90.83544
G0 F3600 X168.925 Y184.023
G1 F1800 X167.251 Y184.023 E90.91895
G0 F3600 X168.021 Y183.703
G1 F1800 X168.021 Y184.532 E90.96031
G0 F3600 X165.354 Y184.809
G1 F1800 X165.354 Y185.636 E91.00157
G0 F3600 X162.687 Y185.914
G1 F1800 X162.687 Y186.74 E91.04278
G0 F3600 X162.806 Y186.69
G1 F1800 X160.818 Y186.69 E91.14196
G0 F3600 X160.02 Y187.02
G1 F1800 X160.02 Y187.844 E91.18307
G0 F3600 X157.353 Y187.949
G1 F1800 X157.353 Y188.722 E91.22164
G0 F3600 X154.686 Y189.073
G1 F1800 X154.686 Y188.301 E91.26015
G0 F3600 X152.517 Y189.357
G1 F1800 X141.52 Y189.357 E91.80879
G0 F3600 X141.351 Y189.334
G1 F1800 X141.351 Y188.565 E91.84716
G0 F3600 X144.018 Y188.914
G1 F1800 X144.018 Y189.685 E91.88563
G0 F3600 X146.685 Y190.036
G1 F1800 X146.685 Y189.264 E91.92414
G0 F3600 X149.352 Y189.004
G1 F1800 X149.352 Y189.773 E91.96251
G0 F3600 X152.019 Y189.423
G1 F1800 X152.019 Y188.652 E92.00097
G1 F1500 E85.50097
G0 F3600 X147.984 Y188.814
G0 X138.684 Y188.983
G1 F1500 E92.00097
G1 F1800 X138.684 Y188.215 E92.03929
G0 F3600 X136.017 Y187.843
G1 F1800 X136.017 Y188.632 E92.07865
G0 F3600 X133.35 Y187.564
G1 F1800 X133.35 Y186.74 E92.11976
G0 F3600 X133.231 Y186.69
G1 F1800 X131.241 Y186.69 E92.21904
G0 F3600 X130.683 Y186.458
G1 F1800 X130.683 Y185.636 E92.26005
G0 F3600 X128.016 Y185.352
G1 F1800 X128.016 Y184.532 E92.30096
G0 F3600 X126.786 Y184.023
G1 F1800 X125.12 Y184.023 E92.38408
G0 F3600 X125.349 Y184.197
G1 F1800 X125.349 Y183.238 E92.43192
G0 F3600 X122.682 Y182.151
G1 F1800 X122.682 Y181.192 E92.47977
G0 F3600 X122.896 Y181.356
G1 F1800 X121.644 Y181.356 E92.54223
G0 F3600 X120.015 Y180.105
G1 F1800 X120.015 Y179.146 E92.59008
G0 F3600 X119.419 Y178.689
G1 F1800 X118.168 Y178.689 E92.65249
G0 F3600 X117.348 Y178.058
G1 F1800 X117.348 Y177.101 E92.70023
G0 F3600 X116.182 Y176.022
G1 F1800 X115.101 Y176.022 E92.75416
G0 F3600 X114.681 Y175.6
G1 F1800 X114.681 Y174.521 E92.808
G0 F3600 X113.515 Y173.355
G1 F1800 X112.434 Y173.355 E92.86193
G0 F3600 X112.014 Y172.933
G1 F1800 X112.014 Y171.854 E92.91576
