;FLAVOR:Marlin
;TIME:898
;Filament used: 0.663255m
;Layer height: 0.2
;Generated with Cura_SteamEngine 3.6.0
M140 S60
M105
M190 S60
M104 S210
M105
M109 S210
M82 ;absolute extrusion mode
G28 ;Home
G1 Z15.0 F6000 ;Move the platform down 15mm
;Prime the extruder
G92 E0
G1 F200 E3
G92 E0
G92 E0
G1 F1500 E-6.5
;LAYER_COUNT:25
;LAYER:0
M107
G0 F3600 X78.167 Y90.772 Z0.3
;TYPE:SKIRT
G1 F1500 E0
G1 F1800 X79.214 Y89.874 E0.06882
G1 X83.606 Y85.887 E0.36475
G1 X85.505 Y84.001 E0.49828
G1 X89.259 Y79.941 E0.77415
G1 X90.772 Y78.17 E0.89036
G1 X91.15 Y77.79 E0.9171
G1 X91.58 Y77.469 E0.94387
G1 X92.053 Y77.217 E0.97061
G1 X92.558 Y77.037 E0.99736
G1 X93.085 Y76.934 E1.02415
G1 X93.509 Y76.909 E1.04534
G1 X106.495 Y76.91 E1.69321
G1 X107.03 Y76.95 E1.71998
G1 X107.553 Y77.069 E1.74674
G1 X108.052 Y77.264 E1.77347
G1 X108.517 Y77.532 E1.80024
G1 X108.937 Y77.865 E1.82698
G1 X109.228 Y78.167 E1.84791
G1 X110.126 Y79.214 E1.91672
G1 X114.113 Y83.606 E2.21266
G1 X115.999 Y85.505 E2.34619
G1 X120.059 Y89.259 E2.62206
G1 X121.816 Y90.755 E2.73718
G1 X122.198 Y91.133 E2.764
G1 X122.518 Y91.562 E2.7907
G1 X122.772 Y92.035 E2.81748
G1 X122.953 Y92.54 E2.84425
G1 X123.056 Y93.066 E2.87099
G1 X123.082 Y93.494 E2.89238
G1 X123.09 Y106.489 E3.5407
G1 X123.05 Y107.024 E3.56747
G1 X122.932 Y107.547 E3.59422
G1 X122.737 Y108.046 E3.62094
G1 X122.47 Y108.511 E3.6477
G1 X122.137 Y108.931 E3.67444
G1 X121.896 Y109.169 E3.69134
G1 X116.382 Y114.124 E4.06118
G1 X114.495 Y115.999 E4.1939
G1 X110.738 Y120.063 E4.47002
G1 X109.244 Y121.816 E4.58493
G1 X108.867 Y122.197 E4.61167
G1 X108.437 Y122.518 E4.63844
G1 X107.965 Y122.771 E4.66516
G1 X107.46 Y122.952 E4.69192
G1 X106.933 Y123.055 E4.71871
G1 X106.506 Y123.081 E4.74005
G1 X93.507 Y123.09 E5.38858
G1 X92.973 Y123.05 E5.41529
G1 X92.45 Y122.932 E5.44204
G1 X91.95 Y122.737 E5.46882
G1 X91.485 Y122.47 E5.49557
G1 X91.065 Y122.137 E5.52231
G1 X90.772 Y121.833 E5.54337
G1 X89.874 Y120.786 E5.61219
G1 X85.887 Y116.394 E5.90813
G1 X84.001 Y114.495 E6.04165
G1 X79.941 Y110.741 E6.31752
G1 X78.17 Y109.228 E6.43373
G1 X77.79 Y108.85 E6.46047
G1 X77.469 Y108.42 E6.48725
G1 X77.217 Y107.947 E6.51398
G1 X77.037 Y107.442 E6.54073
G1 X76.934 Y106.915 E6.56752
G1 X76.909 Y106.491 E6.58871
G1 X76.91 Y93.505 E7.23658
G1 X76.95 Y92.97 E7.26335
G1 X77.069 Y92.447 E7.29011
G1 X77.264 Y91.948 E7.31684
G1 X77.532 Y91.483 E7.34361
G1 X77.865 Y91.063 E7.37036
G1 X78.167 Y90.772 E7.39128
G0 F3600 X78.427 Y91.075
G1 F1800 X79.498 Y90.157 E7.46165
G1 X83.886 Y86.173 E7.75734
G1 X85.799 Y84.274 E7.89182
G1 X89.549 Y80.217 E8.16745
G1 X91.076 Y78.43 E8.28472
G1 X91.434 Y78.073 E8.30994
G1 X91.844 Y77.776 E8.3352
G1 X92.295 Y77.548 E8.36041
G1 X92.776 Y77.394 E8.38561
G1 X93.509 Y77.309 E8.42242
G1 X106.495 Y77.31 E9.0703
G1 X106.999 Y77.35 E9.09552
G1 X107.491 Y77.469 E9.12077
G1 X107.957 Y77.664 E9.14598
G1 X108.387 Y77.929 E9.17118
G1 X108.925 Y78.427 E9.20775
G1 X109.843 Y79.498 E9.27813
G1 X113.827 Y83.886 E9.57381
G1 X115.726 Y85.799 E9.70829
G1 X119.786 Y89.552 E9.98413
G1 X121.557 Y91.06 E10.10018
G1 X121.915 Y91.417 E10.1254
G1 X122.212 Y91.826 E10.15062
G1 X122.441 Y92.277 E10.17585
G1 X122.596 Y92.758 E10.20107
G1 X122.682 Y93.494 E10.23804
G1 X122.69 Y106.489 E10.88636
G1 X122.65 Y106.993 E10.91158
G1 X122.532 Y107.485 E10.93682
G1 X122.337 Y107.951 E10.96203
G1 X122.072 Y108.381 E10.98723
G1 X121.629 Y108.871 E11.02018
G1 X116.106 Y113.835 E11.39066
G1 X114.201 Y115.726 E11.52458
G1 X110.447 Y119.788 E11.80052
G1 X108.94 Y121.556 E11.91642
G1 X108.582 Y121.914 E11.94168
G1 X108.173 Y122.211 E11.9669
G1 X107.722 Y122.44 E11.99214
G1 X107.241 Y122.595 E12.01735
G1 X106.506 Y122.681 E12.05427
G1 X93.507 Y122.69 E12.70279
G1 X93.003 Y122.65 E12.72801
G1 X92.512 Y122.532 E12.75321
G1 X92.045 Y122.338 E12.77844
G1 X91.615 Y122.072 E12.80366
G1 X91.075 Y121.573 E12.84035
G1 X90.157 Y120.502 E12.91072
G1 X86.173 Y116.114 E13.20641
G1 X84.274 Y114.201 E13.34089
G1 X80.217 Y110.451 E13.61651
G1 X78.43 Y108.924 E13.73378
G1 X78.073 Y108.566 E13.75901
G1 X77.776 Y108.156 E13.78426
G1 X77.548 Y107.705 E13.80948
G1 X77.394 Y107.224 E13.83467
G1 X77.309 Y106.491 E13.87149
G1 X77.31 Y93.505 E14.51936
G1 X77.35 Y93.001 E14.54459
G1 X77.469 Y92.509 E14.56984
G1 X77.664 Y92.043 E14.59504
G1 X77.929 Y91.613 E14.62024
G1 X78.427 Y91.075 E14.65682
G1 F1500 E8.15682
G0 F3600 X79.979 Y93.248
G0 X80.004 Y93.284
G0 X84.615 Y99.742
G0 X84.64 Y99.778
G0 X84.8 Y100
;TYPE:SUPPORT
G1 F1500 E14.65682
G1 F1800 X88.1 Y98.094 E14.84694
G1 X88.1 Y101.906 E15.03712
G1 X84.8 Y100 E15.22725
G0 F3600 X85.344 Y100.129
G1 F1800 X85.344 Y99.87 E15.24017
G0 F3600 X87.407 Y98.679
G1 F1800 X87.94 Y98.679 E15.26676
G0 F3600 X87.94 Y101.346
G1 F1800 X87.449 Y101.346 E15.29126
G1 F1500 E8.79126
G0 F3600 X88.372 Y102.26
G0 X88.403 Y102.291
G0 X97.789 Y111.596
G0 X97.82 Y111.627
G0 X98.094 Y111.9
G1 F1500 E15.29126
G1 F1800 X101.906 Y111.9 E15.48144
G1 X100 Y115.2 E15.67157
G1 X98.094 Y111.9 E15.86169
G0 F3600 X98.679 Y112.06
G1 F1800 X98.679 Y112.593 E15.88828
G0 F3600 X99.885 Y114.681
G1 F1800 X100.114 Y114.681 E15.89971
G0 F3600 X101.346 Y112.551
G1 F1800 X101.346 Y112.06 E15.9242
G1 F1500 E9.4242
G0 F3600 X101.795 Y111.626
G0 X101.826 Y111.595
G0 X111.596 Y102.196
G0 X111.628 Y102.166
G0 X111.9 Y101.906
G1 F1500 E15.9242
G1 F1800 X111.9 Y98.094 E16.11439
G1 X115.2 Y100 E16.30451
G1 X111.9 Y101.906 E16.49464
G0 F3600 X112.06 Y101.346
G1 F1800 X112.55 Y101.346 E16.51908
G0 F3600 X114.681 Y100.115
G1 F1800 X114.681 Y99.886 E16.53051
G0 F3600 X112.594 Y98.679
G1 F1800 X112.06 Y98.679 E16.55715
G1 F1500 E10.05715
G0 F3600 X111.626 Y98.228
G0 X111.596 Y98.197
G0 X102.196 Y88.404
G0 X102.166 Y88.372
G0 X101.906 Y88.1
G1 F1500 E16.55715
G1 F1800 X98.094 Y88.1 E16.74733
G1 X100 Y84.8 E16.93746
G1 X101.906 Y88.1 E17.12758
G0 F3600 X101.346 Y87.94
G1 F1800 X101.346 Y87.45 E17.15203
G0 F3600 X100.13 Y85.344
G1 F1800 X99.871 Y85.344 E17.16495
G0 F3600 X98.679 Y87.406
G1 F1800 X98.679 Y87.94 E17.19159
G1 F1500 E10.69159
;MESH:Directional.stl
G0 F3600 X98.679 Y89.6
G0 X95.411 Y89.65
G0 X95.497 Y89.6
;TYPE:WALL-INNER
G1 F1500 E17.19159
G1 F1800 X95.842 Y89.6 E17.2088
G1 X95.843 Y89.6 E17.20885
G1 X104.157 Y89.6 E17.62364
G1 X104.158 Y89.6 E17.62369
G1 X104.503 Y89.6 E17.6409
G1 X104.33 Y89.301 E17.65067
G1 X100.346 Y82.4 E18.04822
G1 X99.654 Y82.4 E18.08274
G1 X95.67 Y89.301 E18.48029
G1 X95.497 Y89.6 E18.49005
G0 F3600 X95.411 Y89.65
G0 X105.83 Y94.17
G0 X105.9 Y94.1
G1 F1800 X118.9 Y94.1 E19.13863
G1 X118.9 Y105.9 E19.72733
G1 X105.9 Y105.9 E20.3759
G1 X105.9 Y118.9 E21.02448
G1 X94.1 Y118.9 E21.61318
G1 X94.1 Y105.9 E22.26175
G1 X81.1 Y105.9 E22.91033
G1 X81.1 Y94.1 E23.49903
G1 X94.1 Y94.1 E24.1476
G1 X94.1 Y81.1 E24.79618
G1 X105.9 Y81.1 E25.38488
G1 X105.9 Y94.1 E26.03345
G0 F3600 X105.83 Y94.17
G0 X110.35 Y104.589
G0 X110.4 Y104.503
G1 F1800 X110.699 Y104.33 E26.05069
G1 X117.6 Y100.346 E26.44823
G1 X117.6 Y99.654 E26.48276
G1 X110.699 Y95.67 E26.8803
G1 X110.4 Y95.497 E26.89754
G1 X110.4 Y95.842 E26.90729
G1 X110.4 Y95.843 E26.90734
G1 X110.4 Y104.157 E27.32213
G1 X110.4 Y104.158 E27.32218
G1 X110.4 Y104.503 E27.33193
G0 F3600 X110.35 Y104.589
G0 X105.872 Y105.872
G0 X95.411 Y110.35
G0 X95.497 Y110.4
G1 F1800 X95.67 Y110.699 E27.34917
G1 X99.654 Y117.6 E27.74671
G1 X100.346 Y117.6 E27.78124
G1 X104.33 Y110.699 E28.17879
G1 X104.503 Y110.4 E28.19602
G1 X104.158 Y110.4 E28.20577
G1 X104.157 Y110.4 E28.20582
G1 X95.843 Y110.4 E28.62061
G1 X95.842 Y110.4 E28.62066
G1 X95.497 Y110.4 E28.63041
G0 F3600 X95.411 Y110.35
G0 X94.128 Y105.872
G0 X89.65 Y104.589
G0 X89.6 Y104.503
G1 F1800 X89.6 Y104.158 E28.64763
G1 X89.6 Y104.157 E28.64768
G1 X89.6 Y95.843 E29.06246
G1 X89.6 Y95.842 E29.06251
G1 X89.6 Y95.497 E29.07972
G1 X89.301 Y95.67 E29.08949
G1 X82.4 Y99.654 E29.48704
G1 X82.4 Y100.346 E29.52156
G1 X89.301 Y104.33 E29.91911
G1 X89.6 Y104.503 E29.92888
G0 F3600 X89.65 Y104.589
G0 X88.95 Y104.242
G0 X89.2 Y103.81
;TYPE:WALL-OUTER
G1 F1800 X89.2 Y96.19 E30.30904
G1 X82.8 Y99.885 E30.67773
G1 X82.8 Y100.115 E30.6892
G1 X89.2 Y103.81 E31.0579
G0 F3600 X89.2 Y103.61
G0 X89.7 Y103.61
G0 X94.128 Y105.872
G0 X96.19 Y110.3
G0 X96.19 Y110.8
G1 F1800 X99.885 Y117.2 E31.42659
G1 X100.115 Y117.2 E31.43806
G1 X103.81 Y110.8 E31.80675
G1 X96.19 Y110.8 E32.18692
G0 F3600 X96.29 Y110.973
G0 X95.857 Y111.222
G0 X95.463 Y110.38
G0 X110.3 Y103.81
G0 X110.8 Y103.81
G1 F1800 X117.2 Y100.115 E32.55561
G1 X117.2 Y99.885 E32.56708
G1 X110.8 Y96.19 E32.93578
G1 X110.8 Y103.81 E33.31594
G0 F3600 X110.973 Y103.71
G0 X111.222 Y104.143
G0 X110.38 Y104.537
G0 X105.872 Y94.128
G0 X105.8 Y93.7
G0 X106.3 Y93.7
G1 F1800 X119.3 Y93.7 E33.96451
G1 X119.3 Y106.3 E34.59313
G1 X106.3 Y106.3 E35.2417
G1 X106.3 Y119.3 E35.89027
G1 X93.7 Y119.3 E36.51889
G1 X93.7 Y106.3 E37.16746
G1 X80.7 Y106.3 E37.81604
G1 X80.7 Y93.7 E38.44465
G1 X93.7 Y93.7 E39.09323
G1 X93.7 Y80.7 E39.7418
G1 X106.3 Y80.7 E40.37041
G1 X106.3 Y93.7 E41.01899
G0 F3600 X106.5 Y93.7
G0 X106.5 Y94.2
G0 X105.872 Y94.128
G0 X95.463 Y89.62
G0 X95.758 Y88.95
G0 X96.19 Y89.2
G1 F1800 X103.81 Y89.2 E41.39915
G1 X100.115 Y82.8 E41.76784
G1 X99.885 Y82.8 E41.77932
G1 X96.19 Y89.2 E42.14801
G0 F3600 X96.39 Y89.2
G0 X96.39 Y89.7
G0 X95.273 Y89.99
;TYPE:SKIN
G1 F1800 X104.727 Y89.99 E42.61967
G1 X104.954 Y89.6 E42.64218
G1 X100.571 Y82.01 E43.07945
G1 X99.429 Y82.01 E43.13643
G1 X95.046 Y89.6 E43.5737
G1 X95.273 Y89.99 E43.59621
G0 F3600 X94.49 Y94.49
G1 F1800 X94.49 Y81.49 E44.24478
G1 X105.51 Y81.49 E44.79457
G1 X105.51 Y94.49 E45.44315
G1 X118.51 Y94.49 E46.09172
G1 X118.51 Y105.51 E46.64151
G1 X105.51 Y105.51 E47.29008
G1 X105.51 Y118.51 E47.93865
G1 X94.49 Y118.51 E48.48844
G1 X94.49 Y105.51 E49.13702
G1 X81.49 Y105.51 E49.78559
G1 X81.49 Y94.49 E50.33538
G1 X94.49 Y94.49 E50.98395
G0 F3600 X89.99 Y95.273
G1 F1800 X89.6 Y95.046 E51.00646
G1 X82.01 Y99.429 E51.44373
G1 X82.01 Y100.571 E51.50071
G1 X89.6 Y104.954 E51.93798
G1 X89.99 Y104.727 E51.96049
G1 X89.99 Y95.273 E52.43215
G0 F3600 X94.128 Y105.872
G0 X95.273 Y110.01
G1 F1800 X95.046 Y110.4 E52.45467
G1 X99.429 Y117.99 E52.89193
G1 X100.571 Y117.99 E52.94891
G1 X104.954 Y110.4 E53.38618
G1 X104.727 Y110.01 E53.40869
G1 X95.273 Y110.01 E53.88035
G0 F3600 X110.01 Y95.273
G1 F1800 X110.01 Y104.727 E54.35202
G1 X110.4 Y104.954 E54.37453
G1 X117.99 Y100.571 E54.8118
G1 X117.99 Y99.429 E54.86877
G1 X110.4 Y95.046 E55.30604
G1 X110.01 Y95.273 E55.32856
G0 F3600 X118.329 Y95.136
G1 F1800 X117.863 Y94.67 E55.36143
G0 F3600 X117.297 Y94.67
G1 F1800 X118.329 Y95.701 E55.43421
G0 F3600 X118.329 Y96.267
G1 F1800 X116.732 Y94.67 E55.54689
G0 F3600 X116.166 Y94.67
G1 F1800 X118.329 Y96.833 E55.6995
G0 F3600 X118.329 Y97.399
G1 F1800 X115.6 Y94.67 E55.89205
G0 F3600 X115.034 Y94.67
G1 F1800 X118.329 Y97.964 E56.12449
G0 F3600 X118.329 Y98.53
G1 F1800 X114.469 Y94.67 E56.39683
G0 F3600 X113.903 Y94.67
G1 F1800 X118.329 Y99.096 E56.70911
G0 F3600 X118.248 Y99.581
G1 F1800 X118.248 Y100.146 E56.73379
G1 X118.083 Y101.112 E56.7766
G0 F3600 X118.329 Y101.924
G1 F1800 X117.478 Y101.073 E56.83664
G0 F3600 X117.12 Y101.281
G1 F1800 X118.329 Y102.49 E56.92194
G0 F3600 X118.329 Y103.055
G1 F1800 X116.761 Y101.488 E57.03254
G0 F3600 X116.403 Y101.695
G1 F1800 X118.329 Y103.621 E57.16843
G0 F3600 X118.329 Y104.187
G1 F1800 X116.044 Y101.902 E57.32965
G0 F3600 X115.686 Y102.109
G1 F1800 X118.329 Y104.752 E57.51613
G0 F3600 X118.329 Y105.318
G1 F1800 X115.327 Y102.316 E57.72793
G0 F3600 X114.968 Y102.523
G1 F1800 X117.774 Y105.329 E57.92591
G0 F3600 X117.209 Y105.329
G1 F1800 X114.609 Y102.73 E58.10932
G0 F3600 X114.251 Y102.937
G1 F1800 X116.643 Y105.329 E58.27809
G0 F3600 X116.077 Y105.329
G1 F1800 X113.892 Y103.144 E58.43225
G0 F3600 X113.534 Y103.352
G1 F1800 X115.512 Y105.329 E58.57177
G0 F3600 X114.946 Y105.329
G1 F1800 X113.175 Y103.559 E58.69669
G0 F3600 X112.817 Y103.766
G1 F1800 X114.38 Y105.329 E58.80697
G0 F3600 X113.815 Y105.329
G1 F1800 X112.458 Y103.973 E58.90268
G0 F3600 X112.1 Y104.18
G1 F1800 X113.249 Y105.329 E58.98375
G0 F3600 X112.683 Y105.329
G1 F1800 X111.741 Y104.387 E59.05021
G0 F3600 X111.382 Y104.594
G1 F1800 X112.118 Y105.329 E59.1021
G0 F3600 X111.552 Y105.329
G1 F1800 X111.024 Y104.801 E59.13936
G0 F3600 X110.825 Y105.168
G1 F1800 X110.236 Y105.144 E59.18804
G0 F3600 X109.829 Y104.738
G1 F1800 X95.261 Y90.17 E60.21589
G0 F3600 X95.827 Y90.17
G1 F1800 X109.829 Y104.172 E61.20381
G1 X109.899 Y104.242
G0 F3600 X109.855 Y105.329
G1 F1800 X94.669 Y90.144 E62.27523
G0 F3600 X94.669 Y90.709
G1 F1800 X109.289 Y105.329 E63.30675
G0 F3600 X108.724 Y105.329
G1 F1800 X94.669 Y91.275 E64.29837
G0 F3600 X94.669 Y91.841
G1 F1800 X108.158 Y105.329 E65.25006
G0 F3600 X107.592 Y105.329
G1 F1800 X94.669 Y92.406 E66.16184
G0 F3600 X94.669 Y92.972
G1 F1800 X107.026 Y105.329 E67.0337
G0 F3600 X106.461 Y105.329
G1 F1800 X94.669 Y93.538 E67.86565
G0 F3600 X94.669 Y94.103
G1 F1800 X105.895 Y105.329 E68.6577
G0 F3600 X105.329 Y105.329
G1 F1800 X94.669 Y94.669 E69.40983
G0 F3600 X94.103 Y94.669
G1 F1800 X105.329 Y105.895 E70.20188
G0 F3600 X105.329 Y106.461
G1 F1800 X93.538 Y94.669 E71.03383
G0 F3600 X92.972 Y94.669
G1 F1800 X105.329 Y107.026 E71.90569
G0 F3600 X105.329 Y107.592
G1 F1800 X92.406 Y94.669 E72.81748
G0 F3600 X91.841 Y94.669
G1 F1800 X105.329 Y108.158 E73.76916
G0 F3600 X105.329 Y108.724
G1 F1800 X91.275 Y94.669 E74.76078
G0 F3600 X90.709 Y94.669
G1 F1800 X105.329 Y109.289 E75.7923
G0 F3600 X105.329 Y109.855
G1 F1800 X90.144 Y94.669 E76.86372
G0 F3600 X90.17 Y95.261
G1 F1800 X104.738 Y109.829 E77.89157
G0 F3600 X104.172 Y109.829
G1 F1800 X90.17 Y95.827 E78.87949
G0 F3600 X90.17 Y96.392
G1 F1800 X103.606 Y109.829 E79.82751
G0 F3600 X103.041 Y109.829
G1 F1800 X90.17 Y96.958 E80.73563
G0 F3600 X90.17 Y97.524
G1 F1800 X102.475 Y109.829 E81.60381
G0 F3600 X101.909 Y109.829
G1 F1800 X90.17 Y98.089 E82.43209
G0 F3600 X90.17 Y98.655
G1 F1800 X101.343 Y109.829 E83.22045
G0 F3600 X100.778 Y109.829
G1 F1800 X90.17 Y99.221 E83.9689
G0 F3600 X90.17 Y99.786
G1 F1800 X100.212 Y109.829 E84.67745
G0 F3600 X99.646 Y109.829
G1 F1800 X90.17 Y100.352 E85.34607
G0 F3600 X90.17 Y100.918
G1 F1800 X94.581 Y105.329 E85.65729
G0 F3600 X94.669 Y105.417
G1 F1800 X99.081 Y109.829 E85.96858
G0 F3600 X98.515 Y109.829
G1 F1800 X94.669 Y105.983 E86.23993
G1 X94.599 Y105.913
G0 F3600 X94.015 Y105.329
G1 F1800 X90.17 Y101.483 E86.51126
G0 F3600 X90.17 Y102.049
G1 F1800 X93.449 Y105.329 E86.74264
G0 F3600 X92.884 Y105.329
G1 F1800 X90.17 Y102.615 E86.93413
G0 F3600 X90.17 Y103.181
G1 F1800 X92.318 Y105.329 E87.08568
G0 F3600 X91.752 Y105.329
G1 F1800 X90.17 Y103.746 E87.19734
G0 F3600 X90.17 Y104.312
G1 F1800 X91.187 Y105.329 E87.26909
G0 F3600 X90.621 Y105.329
G1 F1800 X90.139 Y104.847 E87.3031
G0 F3600 X89.918 Y105.192
G1 F1800 X89.215 Y105.054 E87.3611
G0 F3600 X88.924 Y105.329
G1 F1800 X87.602 Y104.007 E87.45438
G1 X87.532 Y103.937
G0 F3600 X87.792 Y105.329
G1 F1800 X84.925 Y102.461 E87.6567
G1 X84.855 Y102.391
G0 F3600 X83.587 Y101.689
G1 F1800 X87.227 Y105.329 E87.91352
G0 F3600 X86.661 Y105.329
G1 F1800 X82.248 Y100.916 E88.22488
G0 F3600 X81.669 Y100.902
G1 F1800 X86.095 Y105.329 E88.53719
G0 F3600 X85.53 Y105.329
G1 F1800 X81.669 Y101.468 E88.80961
G1 X81.599 Y101.398
G0 F3600 X81.829 Y100.497
G0 X81.749 Y100.417
G1 F1800 X81.749 Y99.851 E88.83428
G1 X81.915 Y98.885 E88.87702
G0 F3600 X81.669 Y98.074
G1 F1800 X82.52 Y98.924 E88.93702
G0 F3600 X82.878 Y98.717
G1 F1800 X81.669 Y97.508 E89.02232
G0 F3600 X81.669 Y96.942
G1 F1800 X83.237 Y98.51 E89.13296
G0 F3600 X83.595 Y98.303
G1 F1800 X81.669 Y96.377 E89.26884
G0 F3600 X81.669 Y95.811
G1 F1800 X83.954 Y98.096 E89.43006
G0 F3600 X84.313 Y97.889
G1 F1800 X81.669 Y95.245 E89.61661
G0 F3600 X81.669 Y94.68
G1 F1800 X84.671 Y97.682 E89.82842
G0 F3600 X85.03 Y97.475
G1 F1800 X82.224 Y94.669 E90.0264
G0 F3600 X82.79 Y94.669
G1 F1800 X85.388 Y97.268 E90.20974
G0 F3600 X85.747 Y97.061
G1 F1800 X83.355 Y94.669 E90.3785
G0 F3600 X83.921 Y94.669
G1 F1800 X86.105 Y96.853 E90.5326
G0 F3600 X86.465 Y96.647
G1 F1800 X84.487 Y94.669 E90.67216
G0 F3600 X85.052 Y94.669
