;FLAVOR:Marlin
;TIME:1078
;Filament used: 0.844607m
;Layer height: 0.2
;Generated with Cura_SteamEngine 3.6.0
M140 S60
M105
M190 S60
M104 S210
M105
M109 S210
M82 ;absolute extrusion mode
G28 ;Home
G1 Z15.0 F6000 ;Move the platform down 15mm
;Prime the extruder
G92 E0
G1 F200 E3
G92 E0
G92 E0
G1 F1500 E-6.5
;LAYER_COUNT:25
;LAYER:0
M107
G0 F3600 X91.34 Y78.428 Z0.3
;TYPE:SKIRT
G1 F1500 E0
G1 F1800 X91.723 Y78.054 E0.02671
G1 X92.159 Y77.74 E0.05351
G1 X92.635 Y77.495 E0.08022
G1 X93.143 Y77.323 E0.10698
G1 X93.671 Y77.229 E0.13374
G1 X94.039 Y77.21 E0.15212
G1 X105.957 Y77.21 E0.74671
G1 X106.492 Y77.25 E0.77348
G1 X107.015 Y77.369 E0.80024
G1 X107.514 Y77.564 E0.82696
G1 X107.979 Y77.832 E0.85374
G1 X108.399 Y78.165 E0.88048
G1 X108.652 Y78.423 E0.89851
G1 X112.092 Y82.306 E1.15732
G1 X115.895 Y86.21 E1.42923
G1 X119.927 Y89.905 E1.70208
G1 X121.556 Y91.324 E1.80986
G1 X121.933 Y91.706 E1.83664
G1 X122.249 Y92.139 E1.86338
G1 X122.497 Y92.614 E1.89011
G1 X122.672 Y93.121 E1.91687
G1 X122.77 Y93.649 E1.94366
G1 X122.791 Y94.039 E1.96315
G1 X122.79 Y105.961 E2.55794
G1 X122.75 Y106.496 E2.58471
G1 X122.631 Y107.019 E2.61147
G1 X122.436 Y107.518 E2.63819
G1 X122.168 Y107.983 E2.66497
G1 X121.835 Y108.403 E2.69171
G1 X121.607 Y108.629 E2.70773
G1 X115.697 Y113.984 E3.10561
G1 X111.907 Y117.892 E3.37721
G1 X108.66 Y121.572 E3.62206
G1 X108.277 Y121.946 E3.64877
G1 X107.841 Y122.26 E3.67557
G1 X107.365 Y122.505 E3.70228
G1 X106.857 Y122.677 E3.72904
G1 X106.329 Y122.771 E3.75579
G1 X105.961 Y122.79 E3.77418
G1 X94.043 Y122.79 E4.36877
G1 X93.508 Y122.75 E4.39554
G1 X92.985 Y122.631 E4.42229
G1 X92.486 Y122.436 E4.44902
G1 X92.021 Y122.168 E4.4758
G1 X91.601 Y121.835 E4.50254
G1 X91.348 Y121.577 E4.52057
G1 X87.908 Y117.694 E4.77938
G1 X84.105 Y113.79 E5.05129
G1 X80.045 Y110.07 E5.32601
G1 X78.45 Y108.681 E5.43153
G1 X78.073 Y108.3 E5.45827
G1 X77.757 Y107.867 E5.48501
G1 X77.508 Y107.391 E5.51181
G1 X77.333 Y106.884 E5.53857
G1 X77.235 Y106.357 E5.56532
G1 X77.214 Y105.967 E5.5848
G1 X77.21 Y94.04 E6.17984
G1 X77.25 Y93.505 E6.20661
G1 X77.369 Y92.982 E6.23337
G1 X77.564 Y92.483 E6.2601
G1 X77.831 Y92.018 E6.28685
G1 X78.164 Y91.598 E6.31359
G1 X78.393 Y91.371 E6.32967
G1 X84.303 Y86.016 E6.72756
G1 X88.093 Y82.108 E6.99916
G1 X91.34 Y78.428 E7.244
G0 F3600 X91.64 Y78.693
G1 F1800 X92.003 Y78.341 E7.26923
G1 X92.417 Y78.051 E7.29445
G1 X92.872 Y77.83 E7.31969
G1 X93.356 Y77.684 E7.34491
G1 X94.039 Y77.61 E7.37918
G1 X105.957 Y77.61 E7.97377
G1 X106.461 Y77.65 E7.999
G1 X106.952 Y77.769 E8.0242
G1 X107.419 Y77.963 E8.04943
G1 X107.849 Y78.229 E8.07466
G1 X108.352 Y78.688 E8.10863
G1 X111.788 Y82.567 E8.36716
G1 X115.622 Y86.501 E8.64122
G1 X119.686 Y90.226 E8.91626
G1 X121.293 Y91.626 E9.02259
G1 X121.647 Y91.987 E9.04781
G1 X121.939 Y92.4 E9.07305
G1 X122.163 Y92.853 E9.09826
G1 X122.313 Y93.336 E9.12349
G1 X122.391 Y94.039 E9.15878
G1 X122.39 Y105.961 E9.75357
G1 X122.35 Y106.465 E9.77879
G1 X122.231 Y106.957 E9.80405
G1 X122.036 Y107.423 E9.82925
G1 X121.771 Y107.853 E9.85445
G1 X121.339 Y108.332 E9.88663
G1 X115.424 Y113.691 E10.28483
G1 X111.603 Y117.632 E10.55869
G1 X108.36 Y121.307 E10.80322
G1 X107.997 Y121.659 E10.82845
G1 X107.583 Y121.949 E10.85366
G1 X107.128 Y122.17 E10.8789
G1 X106.644 Y122.316 E10.90412
G1 X105.961 Y122.39 E10.9384
G1 X94.043 Y122.39 E11.53299
G1 X93.539 Y122.35 E11.55821
G1 X93.048 Y122.231 E11.58342
G1 X92.581 Y122.037 E11.60864
G1 X92.151 Y121.771 E11.63387
G1 X91.648 Y121.312 E11.66784
G1 X88.212 Y117.433 E11.92637
G1 X84.378 Y113.499 E12.20043
G1 X80.295 Y109.757 E12.47674
G1 X78.713 Y108.379 E12.58141
G1 X78.359 Y108.018 E12.60664
G1 X78.066 Y107.606 E12.63186
G1 X77.842 Y107.153 E12.65707
G1 X77.692 Y106.67 E12.6823
G1 X77.614 Y105.967 E12.71759
G1 X77.61 Y94.04 E13.31263
G1 X77.65 Y93.536 E13.33786
G1 X77.768 Y93.045 E13.36305
G1 X77.963 Y92.578 E13.3883
G1 X78.229 Y92.148 E13.41352
G1 X78.661 Y91.668 E13.44574
G1 X84.576 Y86.309 E13.84395
G1 X88.397 Y82.368 E14.1178
G1 X91.64 Y78.693 E14.36233
G0 F3600 X94 Y81.116
;TYPE:SUPPORT
G1 F1800 X94.116 Y81 E14.37051
G1 X105.884 Y81 E14.95762
G1 X106 Y81.116 E14.96581
G1 X106 Y93.601 E15.58869
G1 X106.399 Y94 E15.61684
G1 X118.884 Y94 E16.23972
G1 X119 Y94.116 E16.2479
G1 X119 Y105.884 E16.83501
G1 X118.884 Y106 E16.84319
G1 X106.399 Y106 E17.46607
G1 X106 Y106.399 E17.49422
G1 X106 Y118.884 E18.1171
G1 X105.884 Y119 E18.12529
G1 X94.116 Y119 E18.7124
G1 X94 Y118.884 E18.72058
G1 X94 Y106.399 E19.34346
G1 X93.601 Y106 E19.37161
G1 X81.116 Y106 E19.99449
G1 X81 Y105.884 E20.00268
G1 X81 Y94.116 E20.58978
G1 X81.116 Y94 E20.59797
G1 X93.601 Y94 E21.22085
G1 X94 Y93.601 E21.249
G1 X94 Y81.116 E21.87188
G0 F3600 X96.744 Y85.1
G1 F1800 X96.1 Y85.744 E21.91732
G1 X96.1 Y90.256 E22.14242
G1 X96.744 Y90.9 E22.18786
G1 X98.1 Y90.9 E22.25551
G1 X98.1 Y91.256 E22.27327
G1 X98.744 Y91.9 E22.31871
G1 X101.256 Y91.9 E22.44403
G1 X101.9 Y91.256 E22.48947
G1 X101.9 Y90.9 E22.50723
G1 X103.256 Y90.9 E22.57488
G1 X103.9 Y90.256 E22.62032
G1 X103.9 Y85.744 E22.84542
G1 X103.256 Y85.1 E22.89086
G1 X101.9 Y85.1 E22.95851
G1 X101.9 Y84.744 E22.97627
G1 X101.256 Y84.1 E23.02171
G1 X98.744 Y84.1 E23.14703
G1 X98.1 Y84.744 E23.19247
G1 X98.1 Y85.1 E23.21023
G1 X96.744 Y85.1 E23.27788
G0 F3600 X90.256 Y96.1
G1 F1800 X85.744 Y96.1 E23.50299
G1 X85.1 Y96.744 E23.54843
G1 X85.1 Y98.1 E23.61608
G1 X84.744 Y98.1 E23.63384
G1 X84.1 Y98.744 E23.67928
G1 X84.1 Y101.256 E23.8046
G1 X84.744 Y101.9 E23.85004
G1 X85.1 Y101.9 E23.8678
G1 X85.1 Y103.256 E23.93545
G1 X85.744 Y103.9 E23.98089
G1 X90.256 Y103.9 E24.20599
G1 X90.9 Y103.256 E24.25143
G1 X90.9 Y101.9 E24.31908
G1 X91.256 Y101.9 E24.33684
G1 X91.9 Y101.256 E24.38228
G1 X91.9 Y98.744 E24.5076
G1 X91.256 Y98.1 E24.55304
G1 X90.9 Y98.1 E24.5708
G1 X90.9 Y96.744 E24.63845
G1 X90.256 Y96.1 E24.68389
G0 F3600 X98.744 Y108.1
G1 F1800 X98.1 Y108.744 E24.72933
G1 X98.1 Y109.1 E24.74709
G1 X96.744 Y109.1 E24.81474
G1 X96.1 Y109.744 E24.86018
G1 X96.1 Y114.256 E25.08528
G1 X96.744 Y114.9 E25.13072
G1 X98.1 Y114.9 E25.19837
G1 X98.1 Y115.256 E25.21613
G1 X98.744 Y115.9 E25.26157
G1 X101.256 Y115.9 E25.3869
G1 X101.9 Y115.256 E25.43233
G1 X101.9 Y114.9 E25.45009
G1 X103.256 Y114.9 E25.51774
G1 X103.9 Y114.256 E25.56318
G1 X103.9 Y109.744 E25.78829
G1 X103.256 Y109.1 E25.83372
G1 X101.9 Y109.1 E25.90138
G1 X101.9 Y108.744 E25.91914
G1 X101.256 Y108.1 E25.96457
G1 X98.744 Y108.1 E26.0899
G0 F3600 X109.1 Y96.744
G1 F1800 X109.1 Y98.1 E26.15755
G1 X108.744 Y98.1 E26.17531
G1 X108.1 Y98.744 E26.22075
G1 X108.1 Y101.256 E26.34607
G1 X108.744 Y101.9 E26.39151
G1 X109.1 Y101.9 E26.40927
G1 X109.1 Y103.256 E26.47692
G1 X109.744 Y103.9 E26.52236
G1 X114.256 Y103.9 E26.74746
G1 X114.9 Y103.256 E26.7929
G1 X114.9 Y101.9 E26.86055
G1 X115.256 Y101.9 E26.87831
G1 X115.9 Y101.256 E26.92375
G1 X115.9 Y98.744 E27.04908
G1 X115.256 Y98.1 E27.09451
G1 X114.9 Y98.1 E27.11227
G1 X114.9 Y96.744 E27.17993
G1 X114.256 Y96.1 E27.22536
G1 X109.744 Y96.1 E27.45047
G1 X109.1 Y96.744 E27.49591
G0 F3600 X109.347 Y96.27
G1 F1800 X109.347 Y94.16 E27.60117
G0 F3600 X109.605 Y96.012
G1 F1800 X90.395 Y96.012 E28.55956
G0 F3600 X90.678 Y96.295
G1 F1800 X90.678 Y94.16 E28.66608
G0 F3600 X88.011 Y94.16
G1 F1800 X88.011 Y95.94 E28.75488
G0 F3600 X85.605 Y96.012
G1 F1800 X81.16 Y96.012 E28.97665
G0 F3600 X82.677 Y94.16
G1 F1800 X82.677 Y105.84 E29.55936
G0 F3600 X81.16 Y104.013
G1 F1800 X85.63 Y104.013 E29.78237
G0 F3600 X85.344 Y103.727
G1 F1800 X85.344 Y105.84 E29.88779
G0 F3600 X88.011 Y105.84
G1 F1800 X88.011 Y104.06 E29.9766
G0 F3600 X90.37 Y104.013
G1 F1800 X109.63 Y104.013 E30.93748
G0 F3600 X109.347 Y103.73
G1 F1800 X109.347 Y105.84 E31.04275
G0 F3600 X106.68 Y105.84
G1 F1800 X106.68 Y94.16 E31.62547
G0 F3600 X105.84 Y93.345
G1 F1800 X94.16 Y93.345 E32.20819
G0 F3600 X93.345 Y94.16
G1 F1800 X93.345 Y105.84 E32.7909
G0 F3600 X94.16 Y106.68
G1 F1800 X105.84 Y106.68 E33.37362
G0 F3600 X105.84 Y109.347
G1 F1800 X103.73 Y109.347 E33.47889
G0 F3600 X104.013 Y109.63
G1 F1800 X104.013 Y90.37 E34.43977
G0 F3600 X103.705 Y90.678
G1 F1800 X105.84 Y90.678 E34.54629
G0 F3600 X105.84 Y88.011
G1 F1800 X104.06 Y88.011 E34.63509
G0 F3600 X104.013 Y85.63
G1 F1800 X104.013 Y81.16 E34.8581
G0 F3600 X105.84 Y82.677
G1 F1800 X94.16 Y82.677 E35.44082
G0 F3600 X96.012 Y81.16
G1 F1800 X96.012 Y85.605 E35.66258
G0 F3600 X96.273 Y85.344
G1 F1800 X94.16 Y85.344 E35.768
G0 F3600 X94.16 Y88.011
G1 F1800 X95.94 Y88.011 E35.85681
G0 F3600 X96.012 Y90.395
G1 F1800 X96.012 Y109.605 E36.8152
G0 F3600 X96.27 Y109.347
G1 F1800 X94.16 Y109.347 E36.92046
G0 F3600 X94.16 Y112.014
G1 F1800 X95.94 Y112.014 E37.00927
G0 F3600 X96.012 Y114.395
G1 F1800 X96.012 Y118.84 E37.23103
G0 F3600 X94.16 Y117.348
G1 F1800 X105.84 Y117.348 E37.81375
G0 F3600 X104.013 Y118.84
G1 F1800 X104.013 Y114.37 E38.03676
G0 F3600 X103.702 Y114.681
G1 F1800 X105.84 Y114.681 E38.14342
G0 F3600 X105.84 Y112.014
G1 F1800 X104.06 Y112.014 E38.23223
G1 F1500 E31.73223
G0 F3600 X103.661 Y114.157
G0 X103.377 Y114.441
G0 X101.346 Y116.037
G1 F1500 E38.23223
G1 F1800 X101.346 Y118.84 E38.37207
G0 F3600 X98.679 Y118.84
G1 F1800 X98.679 Y116.06 E38.51076
G0 F3600 X96.298 Y114.681
G1 F1800 X94.16 Y114.681 E38.61743
G1 F1500 E32.11743
G0 F3600 X96.339 Y109.843
G0 X96.623 Y109.559
G0 X98.679 Y107.94
G1 F1500 E38.61743
G1 F1800 X98.679 Y92.06 E39.40969
G0 F3600 X101.346 Y92.037
G1 F1800 X101.346 Y107.963 E40.20424
G0 F3600 X107.963 Y101.346
G1 F1800 X92.037 Y101.346 E40.99879
G0 F3600 X92.06 Y98.679
G1 F1800 X107.94 Y98.679 E41.79105
G1 F1500 E35.29105
G0 F3600 X109.339 Y96.843
G0 X109.843 Y96.339
G0 X112.014 Y95.94
G1 F1500 E41.79105
G1 F1800 X112.014 Y94.16 E41.87985
G0 F3600 X114.681 Y94.16
G1 F1800 X114.681 Y96.298 E41.98652
G0 F3600 X114.395 Y96.012
G1 F1800 X118.84 Y96.012 E42.20828
G0 F3600 X117.348 Y94.16
G1 F1800 X117.348 Y105.84 E42.79099
G0 F3600 X118.84 Y104.013
G1 F1800 X114.37 Y104.013 E43.014
G0 F3600 X114.681 Y103.702
G1 F1800 X114.681 Y105.84 E43.12067
G0 F3600 X112.014 Y105.84
G1 F1800 X112.014 Y104.06 E43.20947
G1 F1500 E36.70947
G0 F3600 X114.157 Y103.661
G0 X114.441 Y103.377
G0 X116.037 Y101.346
G1 F1500 E43.20947
G1 F1800 X118.84 Y101.346 E43.34932
G0 F3600 X118.84 Y98.679
G1 F1800 X116.06 Y98.679 E43.48801
G0 F3600 X105.84 Y85.344
G1 F1800 X103.727 Y85.344 E43.59343
G0 F3600 X101.346 Y83.963
G1 F1800 X101.346 Y81.16 E43.73327
G0 F3600 X98.679 Y81.16
G1 F1800 X98.679 Y83.94 E43.87197
G1 F1500 E37.37197
G0 F3600 X96.843 Y85.339
G0 X96.339 Y85.843
G0 X96.295 Y90.678
G1 F1500 E43.87197
G1 F1800 X94.16 Y90.678 E43.97848
G0 F3600 X85.344 Y94.16
G1 F1800 X85.344 Y96.273 E44.0839
G0 F3600 X83.94 Y98.679
G1 F1800 X81.16 Y98.679 E44.22259
G0 F3600 X81.16 Y101.346
G1 F1800 X83.963 Y101.346 E44.36244
G1 F1500 E37.86244
G0 F3600 X85.339 Y103.157
G0 X85.843 Y103.661
G0 X90.678 Y103.705
G1 F1500 E44.36244
G1 F1800 X90.678 Y105.84 E44.46895
G1 F1500 E37.96895
G0 F3600 X98.175 Y90.631
G0 X98.203 Y90.575
G0 X98.716 Y89.533
G0 X98.734 Y89.494
G0 X98.931 Y89.1
G1 F1500 E44.46895
G1 F1800 X98.93 Y86.9 E44.57871
G1 X101.069 Y86.9 E44.68543
G1 X101.07 Y89.1 E44.79518
G1 X98.931 Y89.1 E44.9019
G0 F3600 X99.09 Y88.011
G1 F1800 X100.91 Y88.011 E44.9927
G1 F1500 E38.4927
G0 F3600 X99.436 Y89.372
G0 X99.404 Y89.402
G0 X98.111 Y90.597
G0 X98.052 Y90.651
G0 X90.654 Y97.492
G0 X90.595 Y97.546
G0 X89.426 Y98.627
G0 X89.394 Y98.657
G0 X89.1 Y98.93
G1 F1500 E44.9927
G1 F1800 X89.1 Y101.07 E45.09946
G1 X86.9 Y101.069 E45.20922
G1 X86.9 Y98.93 E45.31594
G1 X89.1 Y98.93 E45.4257
G0 F3600 X88.011 Y99.09
G1 F1800 X88.011 Y100.909 E45.51645
G1 F1500 E39.01645
G0 F3600 X88.483 Y101.34
G0 X88.515 Y101.37
G0 X90.512 Y103.197
G0 X90.571 Y103.251
G0 X97.232 Y109.346
G0 X97.291 Y109.4
G0 X98.624 Y110.62
G0 X98.656 Y110.65
G0 X98.93 Y110.9
G1 F1500 E45.51645
G1 F1800 X101.069 Y110.9 E45.62316
G1 X101.07 Y113.1 E45.73292
G1 X98.931 Y113.1 E45.83964
G1 X98.93 Y110.9 E45.94939
G0 F3600 X99.09 Y112.014
G1 F1800 X100.91 Y112.014 E46.04019
G1 F1500 E39.54019
G0 F3600 X101.34 Y111.539
G0 X101.37 Y111.507
G0 X103.207 Y109.495
G0 X103.261 Y109.436
G0 X109.347 Y102.768
G0 X109.401 Y102.709
G0 X110.621 Y101.372
G0 X110.651 Y101.34
G0 X110.9 Y101.069
G1 F1500 E46.04019
G1 F1800 X110.9 Y98.93 E46.14691
G1 X113.1 Y98.931 E46.25667
G1 X113.1 Y101.07 E46.36338
G1 X110.9 Y101.069 E46.47314
G0 F3600 X112.014 Y100.909
G1 F1800 X112.014 Y99.091 E46.56384
G1 F1500 E40.06384
;MESH:directional.stl
G0 F3600 X110.629 Y99.097
G0 X110.585 Y99.097
G0 X108.414 Y99.108
G0 X108.334 Y99.108
G0 X91.665 Y99.189
G0 X91.585 Y99.189
G0 X89.414 Y99.2
G0 X89.37 Y99.2
G0 X86.665 Y99.214
G0 X85.786 Y99.214
G0 X85.7 Y100.73
G0 X85.8 Y100.8
;TYPE:WALL-OUTER
G1 F1500 E46.56384
G1 F1800 X85.2 Y100.8 E46.59378
G1 X85.2 Y99.2 E46.6736
G1 X85.8 Y99.2 E46.70353
G1 X85.8 Y100.8 E46.78336
G0 F3600 X85.6 Y100.8
G0 X85.499 Y100.49
;TYPE:SKIN
G1 F1800 X85.499 Y100.207 E46.79247
G1 X85.57 Y99.429 E46.81762
G0 F3600 X85.6 Y99.464
G1 F1500 E40.31762
G0 F3600 X85.786 Y100.786
G0 X86.214 Y102.183
G0 X86.4 Y102.269
G0 X86.4 Y102.169
;TYPE:WALL-OUTER
G1 F1500 E46.81762
G1 F1800 X89.8 Y102.17 E46.98724
G1 X89.8 Y102.8 E47.01868
G1 X86.2 Y102.8 E47.19828
G1 X86.2 Y102.369 E47.21978
G1 X86.2 Y102.169 E47.22976
G1 X86.4 Y102.169 E47.23622
G0 F3600 X86.6 Y102.169
G0 X86.644 Y102.483
;TYPE:SKIN
G1 F1800 X86.927 Y102.483 E47.24589
G1 X89.473 Y102.484 E47.33287
G0 F3600 X89.593 Y102.604
G0 X86.481 Y102.604
G1 F1800 X86.395 Y102.517 E47.33592
G0 F3600 X86.6 Y102.4
G1 F1500 E40.83592
G0 F3600 X89.786 Y102.184
G0 X90.214 Y100.786
G0 X90.7 Y100.73
G0 X90.8 Y100.8
;TYPE:WALL-OUTER
G1 F1500 E47.33592
G1 F1800 X90.2 Y100.8 E47.36585
G1 X90.2 Y99.2 E47.44568
G1 X90.8 Y99.2 E47.47561
G1 X90.8 Y100.8 E47.55544
G0 F3600 X90.6 Y100.8
G0 X90.5 Y100.399
;TYPE:SKIN
G1 F1800 X90.5 Y100.116 E47.56589
G1 X90.5 Y99.551 E47.58675
G0 F3600 X90.4 Y99.446
G1 F1500 E41.08675
G0 F3600 X90.214 Y99.214
G0 X89.786 Y97.816
G0 X89.7 Y97.76
G0 X89.8 Y97.83
;TYPE:WALL-OUTER
G1 F1500 E47.58675
G1 F1800 X86.2 Y97.83 E47.76636
G1 X86.2 Y97.2 E47.79779
G1 X89.8 Y97.2 E47.97739
G1 X89.8 Y97.83 E48.00882
G0 F3600 X89.6 Y97.83
G0 X89.311 Y97.513
;TYPE:SKIN
G1 F1800 X89.028 Y97.513 E48.01837
G1 X86.498 Y97.529 E48.10371
G0 F3600 X86.395 Y97.425
G0 X89.475 Y97.394
G1 F1800 X89.604 Y97.524 E48.10828
G0 F3600 X89.4 Y97.43
G1 F1500 E41.60828
G0 F3600 X89.786 Y97.214
G0 X90.411 Y96.588
G0 X96.589 Y90.412
G0 X97.214 Y89.786
G0 X97.73 Y89.6
G0 X97.831 Y89.6
;TYPE:WALL-OUTER
G1 F1500 E48.10828
G1 F1800 X97.831 Y89.8 E48.11826
G1 X97.631 Y89.8 E48.12472
G1 X97.2 Y89.8 E48.14622
G1 X97.2 Y86.2 E48.32582
G1 X97.83 Y86.2 E48.35725
G1 X97.831 Y89.6 E48.52688
G0 F3600 X97.831 Y89.8
G0 X97.459 Y89.539
;TYPE:SKIN
G1 F1800 X97.514 Y89.311 E48.53443
G1 X97.529 Y86.499 E48.62493
G0 F3600 X97.6 Y86.6
G1 F1500 E42.12493
G0 F3600 X97.817 Y89.786
G0 X99.214 Y90.214
G0 X100.7 Y90.73
G0 X100.8 Y90.8
;TYPE:WALL-OUTER
G1 F1500 E48.62493
G1 F1800 X99.2 Y90.8 E48.70476
G1 X99.2 Y90.2 E48.73469
G1 X100.8 Y90.2 E48.81451
G1 X100.8 Y90.8 E48.84445
G0 F3600 X100.6 Y90.8
G0 X100.398 Y90.499
;TYPE:SKIN
G1 F1800 X100.116 Y90.499 E48.85485
G1 X99.55 Y90.499 E48.87574
G0 F3600 X99.446 Y90.4
G1 F1500 E42.37574
G0 F3600 X100.786 Y90.214
G0 X102.184 Y89.786
G0 X102.7 Y89.73
G0 X102.8 Y89.8
;TYPE:WALL-OUTER
G1 F1500 E48.87574
G1 F1800 X102.17 Y89.8 E48.90717
G1 X102.169 Y86.4 E49.0768
G1 X102.169 Y86.2 E49.08678
G1 X102.369 Y86.2 E49.09324
G1 X102.8 Y86.2 E49.11474
G1 X102.8 Y89.8 E49.29434
G0 F3600 X102.6 Y89.8
G0 X102.483 Y89.472
;TYPE:SKIN
G1 F1800 X102.483 Y89.19 E49.30363
G1 X102.483 Y86.644 E49.3875
G1 X102.56 Y86.438 E49.39475
G0 F3600 X102.57 Y86.483
G1 F1500 E42.89475
G0 F3600 X102.183 Y86.214
G0 X100.786 Y85.786
G0 X100.7 Y85.73
G0 X100.8 Y85.8
;TYPE:WALL-OUTER
G1 F1500 E49.39475
G1 F1800 X99.2 Y85.8 E49.47457
G1 X99.2 Y85.2 E49.50451
G1 X100.8 Y85.2 E49.58433
G1 X100.8 Y85.8 E49.61426
G0 F3600 X100.6 Y85.8
G0 X100.49 Y85.499
;TYPE:SKIN
G1 F1800 X100.207 Y85.499 E49.6233
G1 X99.428 Y85.569 E49.64829
G0 F3600 X99.463 Y85.6
G1 F1500 E43.14829
G0 F3600 X100.786 Y85.786
